(G-CODE GENERATED BY FLATCAM v8.994 - www.flatcam.org - Version Date: 2020/11/7)

(Name: NummernstellpultInput.drl_mill_cnc)
(Type: G-code from Geometry)
(Units: MM)

(Created on Tuesday, 21 December 2021 at 22:56)

(This preprocessor is the default preprocessor used by FlatCAM.)
(It is made to work with MACH3 compatible motion controllers.)

(TOOL DIAMETER: 0.8 mm)
(Feedrate_XY: 120.0 mm/min)
(Feedrate_Z: 60.0 mm/min)
(Feedrate rapids 1500.0 mm/min)

(Z_Cut: -1.8 mm)
(Z_Move: 2.0 mm)
(Z Start: None mm)
(Z End: 15.0 mm)
(X,Y End: None mm)
(Steps per circle: 64)
(Preprocessor Geometry: default)

(X range:    3.9350 ...   84.3750  mm)
(Y range:    3.6750 ...   86.0950  mm)

(Spindle Speed: 10000.0 RPM)
G21
G90
G94

G01 F120.00

M5
G00 Z15.0000
G00 X0.0000 Y0.0000
T1
M6    
(MSG, Change to Tool Dia = 0.8000)
M0
G00 Z15.0000

M03 S10000.0
G01 F120.00
G00 X13.1750 Y15.3650
G01 F60.00
G01 Z-1.8000
G01 F120.00
G01 X13.1743 Y15.3503
G01 X13.1721 Y15.3357
G01 X13.1686 Y15.3215
G01 X13.1636 Y15.3076
G01 X13.1573 Y15.2943
G01 X13.1497 Y15.2817
G01 X13.1410 Y15.2699
G01 X13.1311 Y15.2589
G01 X13.1202 Y15.2491
G01 X13.1083 Y15.2403
G01 X13.0957 Y15.2327
G01 X13.0824 Y15.2264
G01 X13.0686 Y15.2215
G01 X13.0543 Y15.2179
G01 X13.0397 Y15.2157
G01 X13.0250 Y15.2150
G01 X13.0103 Y15.2157
G01 X12.9957 Y15.2179
G01 X12.9815 Y15.2215
G01 X12.9676 Y15.2264
G01 X12.9543 Y15.2327
G01 X12.9417 Y15.2403
G01 X12.9299 Y15.2491
G01 X12.9189 Y15.2589
G01 X12.9091 Y15.2699
G01 X12.9003 Y15.2817
G01 X12.8927 Y15.2943
G01 X12.8864 Y15.3076
G01 X12.8815 Y15.3215
G01 X12.8779 Y15.3357
G01 X12.8757 Y15.3503
G01 X12.8750 Y15.3650
G01 X12.8757 Y15.3797
G01 X12.8779 Y15.3943
G01 X12.8815 Y15.4086
G01 X12.8864 Y15.4224
G01 X12.8927 Y15.4357
G01 X12.9003 Y15.4483
G01 X12.9091 Y15.4602
G01 X12.9189 Y15.4711
G01 X12.9299 Y15.4810
G01 X12.9417 Y15.4897
G01 X12.9543 Y15.4973
G01 X12.9676 Y15.5036
G01 X12.9815 Y15.5086
G01 X12.9957 Y15.5121
G01 X13.0103 Y15.5143
G01 X13.0250 Y15.5150
G01 X13.0397 Y15.5143
G01 X13.0543 Y15.5121
G01 X13.0686 Y15.5086
G01 X13.0824 Y15.5036
G01 X13.0957 Y15.4973
G01 X13.1083 Y15.4897
G01 X13.1202 Y15.4810
G01 X13.1311 Y15.4711
G01 X13.1410 Y15.4602
G01 X13.1497 Y15.4483
G01 X13.1573 Y15.4357
G01 X13.1636 Y15.4224
G01 X13.1686 Y15.4086
G01 X13.1721 Y15.3943
G01 X13.1743 Y15.3797
G01 X13.1750 Y15.3650
G00 Z2.0000
G00 X13.1750 Y20.4450
G01 F60.00
G01 Z-1.8000
G01 F120.00
G01 X13.1743 Y20.4303
G01 X13.1721 Y20.4157
G01 X13.1686 Y20.4015
G01 X13.1636 Y20.3876
G01 X13.1573 Y20.3743
G01 X13.1497 Y20.3617
G01 X13.1410 Y20.3499
G01 X13.1311 Y20.3389
G01 X13.1202 Y20.3291
G01 X13.1083 Y20.3203
G01 X13.0957 Y20.3127
G01 X13.0824 Y20.3064
G01 X13.0686 Y20.3015
G01 X13.0543 Y20.2979
G01 X13.0397 Y20.2957
G01 X13.0250 Y20.2950
G01 X13.0103 Y20.2957
G01 X12.9957 Y20.2979
G01 X12.9815 Y20.3015
G01 X12.9676 Y20.3064
G01 X12.9543 Y20.3127
G01 X12.9417 Y20.3203
G01 X12.9299 Y20.3291
G01 X12.9189 Y20.3389
G01 X12.9091 Y20.3499
G01 X12.9003 Y20.3617
G01 X12.8927 Y20.3743
G01 X12.8864 Y20.3876
G01 X12.8815 Y20.4015
G01 X12.8779 Y20.4157
G01 X12.8757 Y20.4303
G01 X12.8750 Y20.4450
G01 X12.8757 Y20.4597
G01 X12.8779 Y20.4743
G01 X12.8815 Y20.4886
G01 X12.8864 Y20.5024
G01 X12.8927 Y20.5157
G01 X12.9003 Y20.5283
G01 X12.9091 Y20.5402
G01 X12.9189 Y20.5511
G01 X12.9299 Y20.5610
G01 X12.9417 Y20.5697
G01 X12.9543 Y20.5773
G01 X12.9676 Y20.5836
G01 X12.9815 Y20.5886
G01 X12.9957 Y20.5921
G01 X13.0103 Y20.5943
G01 X13.0250 Y20.5950
G01 X13.0397 Y20.5943
G01 X13.0543 Y20.5921
G01 X13.0686 Y20.5886
G01 X13.0824 Y20.5836
G01 X13.0957 Y20.5773
G01 X13.1083 Y20.5697
G01 X13.1202 Y20.5610
G01 X13.1311 Y20.5511
G01 X13.1410 Y20.5402
G01 X13.1497 Y20.5283
G01 X13.1573 Y20.5157
G01 X13.1636 Y20.5024
G01 X13.1686 Y20.4886
G01 X13.1721 Y20.4743
G01 X13.1743 Y20.4597
G01 X13.1750 Y20.4450
G00 Z2.0000
G00 X13.1750 Y25.5250
G01 F60.00
G01 Z-1.8000
G01 F120.00
G01 X13.1743 Y25.5103
G01 X13.1721 Y25.4957
G01 X13.1686 Y25.4815
G01 X13.1636 Y25.4676
G01 X13.1573 Y25.4543
G01 X13.1497 Y25.4417
G01 X13.1410 Y25.4299
G01 X13.1311 Y25.4189
G01 X13.1202 Y25.4091
G01 X13.1083 Y25.4003
G01 X13.0957 Y25.3927
G01 X13.0824 Y25.3864
G01 X13.0686 Y25.3815
G01 X13.0543 Y25.3779
G01 X13.0397 Y25.3757
G01 X13.0250 Y25.3750
G01 X13.0103 Y25.3757
G01 X12.9957 Y25.3779
G01 X12.9815 Y25.3815
G01 X12.9676 Y25.3864
G01 X12.9543 Y25.3927
G01 X12.9417 Y25.4003
G01 X12.9299 Y25.4091
G01 X12.9189 Y25.4189
G01 X12.9091 Y25.4299
G01 X12.9003 Y25.4417
G01 X12.8927 Y25.4543
G01 X12.8864 Y25.4676
G01 X12.8815 Y25.4815
G01 X12.8779 Y25.4957
G01 X12.8757 Y25.5103
G01 X12.8750 Y25.5250
G01 X12.8757 Y25.5397
G01 X12.8779 Y25.5543
G01 X12.8815 Y25.5686
G01 X12.8864 Y25.5824
G01 X12.8927 Y25.5957
G01 X12.9003 Y25.6083
G01 X12.9091 Y25.6202
G01 X12.9189 Y25.6311
G01 X12.9299 Y25.6410
G01 X12.9417 Y25.6497
G01 X12.9543 Y25.6573
G01 X12.9676 Y25.6636
G01 X12.9815 Y25.6686
G01 X12.9957 Y25.6721
G01 X13.0103 Y25.6743
G01 X13.0250 Y25.6750
G01 X13.0397 Y25.6743
G01 X13.0543 Y25.6721
G01 X13.0686 Y25.6686
G01 X13.0824 Y25.6636
G01 X13.0957 Y25.6573
G01 X13.1083 Y25.6497
G01 X13.1202 Y25.6410
G01 X13.1311 Y25.6311
G01 X13.1410 Y25.6202
G01 X13.1497 Y25.6083
G01 X13.1573 Y25.5957
G01 X13.1636 Y25.5824
G01 X13.1686 Y25.5686
G01 X13.1721 Y25.5543
G01 X13.1743 Y25.5397
G01 X13.1750 Y25.5250
G00 Z2.0000
G00 X13.1750 Y30.6050
G01 F60.00
G01 Z-1.8000
G01 F120.00
G01 X13.1743 Y30.5903
G01 X13.1721 Y30.5757
G01 X13.1686 Y30.5615
G01 X13.1636 Y30.5476
G01 X13.1573 Y30.5343
G01 X13.1497 Y30.5217
G01 X13.1410 Y30.5099
G01 X13.1311 Y30.4989
G01 X13.1202 Y30.4891
G01 X13.1083 Y30.4803
G01 X13.0957 Y30.4727
G01 X13.0824 Y30.4664
G01 X13.0686 Y30.4615
G01 X13.0543 Y30.4579
G01 X13.0397 Y30.4557
G01 X13.0250 Y30.4550
G01 X13.0103 Y30.4557
G01 X12.9957 Y30.4579
G01 X12.9815 Y30.4615
G01 X12.9676 Y30.4664
G01 X12.9543 Y30.4727
G01 X12.9417 Y30.4803
G01 X12.9299 Y30.4891
G01 X12.9189 Y30.4989
G01 X12.9091 Y30.5099
G01 X12.9003 Y30.5217
G01 X12.8927 Y30.5343
G01 X12.8864 Y30.5476
G01 X12.8815 Y30.5615
G01 X12.8779 Y30.5757
G01 X12.8757 Y30.5903
G01 X12.8750 Y30.6050
G01 X12.8757 Y30.6197
G01 X12.8779 Y30.6343
G01 X12.8815 Y30.6486
G01 X12.8864 Y30.6624
G01 X12.8927 Y30.6757
G01 X12.9003 Y30.6883
G01 X12.9091 Y30.7002
G01 X12.9189 Y30.7111
G01 X12.9299 Y30.7210
G01 X12.9417 Y30.7297
G01 X12.9543 Y30.7373
G01 X12.9676 Y30.7436
G01 X12.9815 Y30.7486
G01 X12.9957 Y30.7521
G01 X13.0103 Y30.7543
G01 X13.0250 Y30.7550
G01 X13.0397 Y30.7543
G01 X13.0543 Y30.7521
G01 X13.0686 Y30.7486
G01 X13.0824 Y30.7436
G01 X13.0957 Y30.7373
G01 X13.1083 Y30.7297
G01 X13.1202 Y30.7210
G01 X13.1311 Y30.7111
G01 X13.1410 Y30.7002
G01 X13.1497 Y30.6883
G01 X13.1573 Y30.6757
G01 X13.1636 Y30.6624
G01 X13.1686 Y30.6486
G01 X13.1721 Y30.6343
G01 X13.1743 Y30.6197
G01 X13.1750 Y30.6050
G00 Z2.0000
G00 X13.1750 Y35.6850
G01 F60.00
G01 Z-1.8000
G01 F120.00
G01 X13.1743 Y35.6703
G01 X13.1721 Y35.6557
G01 X13.1686 Y35.6415
G01 X13.1636 Y35.6276
G01 X13.1573 Y35.6143
G01 X13.1497 Y35.6017
G01 X13.1410 Y35.5899
G01 X13.1311 Y35.5789
G01 X13.1202 Y35.5691
G01 X13.1083 Y35.5603
G01 X13.0957 Y35.5527
G01 X13.0824 Y35.5464
G01 X13.0686 Y35.5415
G01 X13.0543 Y35.5379
G01 X13.0397 Y35.5357
G01 X13.0250 Y35.5350
G01 X13.0103 Y35.5357
G01 X12.9957 Y35.5379
G01 X12.9815 Y35.5415
G01 X12.9676 Y35.5464
G01 X12.9543 Y35.5527
G01 X12.9417 Y35.5603
G01 X12.9299 Y35.5691
G01 X12.9189 Y35.5789
G01 X12.9091 Y35.5899
G01 X12.9003 Y35.6017
G01 X12.8927 Y35.6143
G01 X12.8864 Y35.6276
G01 X12.8815 Y35.6415
G01 X12.8779 Y35.6557
G01 X12.8757 Y35.6703
G01 X12.8750 Y35.6850
G01 X12.8757 Y35.6997
G01 X12.8779 Y35.7143
G01 X12.8815 Y35.7286
G01 X12.8864 Y35.7424
G01 X12.8927 Y35.7557
G01 X12.9003 Y35.7683
G01 X12.9091 Y35.7802
G01 X12.9189 Y35.7911
G01 X12.9299 Y35.8010
G01 X12.9417 Y35.8097
G01 X12.9543 Y35.8173
G01 X12.9676 Y35.8236
G01 X12.9815 Y35.8286
G01 X12.9957 Y35.8321
G01 X13.0103 Y35.8343
G01 X13.0250 Y35.8350
G01 X13.0397 Y35.8343
G01 X13.0543 Y35.8321
G01 X13.0686 Y35.8286
G01 X13.0824 Y35.8236
G01 X13.0957 Y35.8173
G01 X13.1083 Y35.8097
G01 X13.1202 Y35.8010
G01 X13.1311 Y35.7911
G01 X13.1410 Y35.7802
G01 X13.1497 Y35.7683
G01 X13.1573 Y35.7557
G01 X13.1636 Y35.7424
G01 X13.1686 Y35.7286
G01 X13.1721 Y35.7143
G01 X13.1743 Y35.6997
G01 X13.1750 Y35.6850
G00 Z2.0000
G00 X14.1250 Y47.0250
G01 F60.00
G01 Z-1.8000
G01 F120.00
G01 X14.1245 Y47.0152
G01 X14.1231 Y47.0055
G01 X14.1207 Y46.9960
G01 X14.1174 Y46.9867
G01 X14.1132 Y46.9779
G01 X14.1082 Y46.9695
G01 X14.1023 Y46.9616
G01 X14.0957 Y46.9543
G01 X14.0885 Y46.9477
G01 X14.0806 Y46.9419
G01 X14.0722 Y46.9368
G01 X14.0633 Y46.9326
G01 X14.0540 Y46.9293
G01 X14.0445 Y46.9269
G01 X14.0348 Y46.9255
G01 X14.0250 Y46.9250
G01 X14.0152 Y46.9255
G01 X14.0055 Y46.9269
G01 X13.9960 Y46.9293
G01 X13.9867 Y46.9326
G01 X13.9779 Y46.9368
G01 X13.9695 Y46.9419
G01 X13.9616 Y46.9477
G01 X13.9543 Y46.9543
G01 X13.9477 Y46.9616
G01 X13.9419 Y46.9695
G01 X13.9368 Y46.9779
G01 X13.9326 Y46.9867
G01 X13.9293 Y46.9960
G01 X13.9269 Y47.0055
G01 X13.9255 Y47.0152
G01 X13.9250 Y47.0250
G01 X13.9255 Y47.0348
G01 X13.9269 Y47.0445
G01 X13.9293 Y47.0540
G01 X13.9326 Y47.0633
G01 X13.9368 Y47.0722
G01 X13.9419 Y47.0806
G01 X13.9477 Y47.0885
G01 X13.9543 Y47.0957
G01 X13.9616 Y47.1023
G01 X13.9695 Y47.1082
G01 X13.9779 Y47.1132
G01 X13.9867 Y47.1174
G01 X13.9960 Y47.1207
G01 X14.0055 Y47.1231
G01 X14.0152 Y47.1245
G01 X14.0250 Y47.1250
G01 X14.0348 Y47.1245
G01 X14.0445 Y47.1231
G01 X14.0540 Y47.1207
G01 X14.0633 Y47.1174
G01 X14.0722 Y47.1132
G01 X14.0806 Y47.1082
G01 X14.0885 Y47.1023
G01 X14.0957 Y47.0957
G01 X14.1023 Y47.0885
G01 X14.1082 Y47.0806
G01 X14.1132 Y47.0722
G01 X14.1174 Y47.0633
G01 X14.1207 Y47.0540
G01 X14.1231 Y47.0445
G01 X14.1245 Y47.0348
G01 X14.1250 Y47.0250
G00 Z2.0000
G00 X19.1250 Y47.0250
G01 F60.00
G01 Z-1.8000
G01 F120.00
G01 X19.1245 Y47.0152
G01 X19.1231 Y47.0055
G01 X19.1207 Y46.9960
G01 X19.1174 Y46.9867
G01 X19.1132 Y46.9779
G01 X19.1082 Y46.9695
G01 X19.1023 Y46.9616
G01 X19.0957 Y46.9543
G01 X19.0885 Y46.9477
G01 X19.0806 Y46.9419
G01 X19.0722 Y46.9368
G01 X19.0633 Y46.9326
G01 X19.0540 Y46.9293
G01 X19.0445 Y46.9269
G01 X19.0348 Y46.9255
G01 X19.0250 Y46.9250
G01 X19.0152 Y46.9255
G01 X19.0055 Y46.9269
G01 X18.9960 Y46.9293
G01 X18.9867 Y46.9326
G01 X18.9779 Y46.9368
G01 X18.9695 Y46.9419
G01 X18.9616 Y46.9477
G01 X18.9543 Y46.9543
G01 X18.9477 Y46.9616
G01 X18.9419 Y46.9695
G01 X18.9368 Y46.9779
G01 X18.9326 Y46.9867
G01 X18.9293 Y46.9960
G01 X18.9269 Y47.0055
G01 X18.9255 Y47.0152
G01 X18.9250 Y47.0250
G01 X18.9255 Y47.0348
G01 X18.9269 Y47.0445
G01 X18.9293 Y47.0540
G01 X18.9326 Y47.0633
G01 X18.9368 Y47.0722
G01 X18.9419 Y47.0806
G01 X18.9477 Y47.0885
G01 X18.9543 Y47.0957
G01 X18.9616 Y47.1023
G01 X18.9695 Y47.1082
G01 X18.9779 Y47.1132
G01 X18.9867 Y47.1174
G01 X18.9960 Y47.1207
G01 X19.0055 Y47.1231
G01 X19.0152 Y47.1245
G01 X19.0250 Y47.1250
G01 X19.0348 Y47.1245
G01 X19.0445 Y47.1231
G01 X19.0540 Y47.1207
G01 X19.0633 Y47.1174
G01 X19.0722 Y47.1132
G01 X19.0806 Y47.1082
G01 X19.0885 Y47.1023
G01 X19.0957 Y47.0957
G01 X19.1023 Y47.0885
G01 X19.1082 Y47.0806
G01 X19.1132 Y47.0722
G01 X19.1174 Y47.0633
G01 X19.1207 Y47.0540
G01 X19.1231 Y47.0445
G01 X19.1245 Y47.0348
G01 X19.1250 Y47.0250
G00 Z2.0000
G00 X20.5550 Y51.9750
G01 F60.00
G01 Z-1.8000
G01 F120.00
G01 X20.5550 Y51.9750
G01 X20.5550 Y51.9750
G01 X20.5550 Y51.9750
G01 X20.5550 Y51.9750
G00 Z2.0000
G00 X20.5550 Y55.7850
G01 F60.00
G01 Z-1.8000
G01 F120.00
G01 X20.5550 Y55.7850
G01 X20.5550 Y55.7850
G01 X20.5550 Y55.7850
G01 X20.5550 Y55.7850
G00 Z2.0000
G00 X20.5550 Y59.5950
G01 F60.00
G01 Z-1.8000
G01 F120.00
G01 X20.5550 Y59.5950
G01 X20.5550 Y59.5950
G01 X20.5550 Y59.5950
G01 X20.5550 Y59.5950
G00 Z2.0000
G00 X11.5550 Y63.2350
G01 F60.00
G01 Z-1.8000
G01 F120.00
G01 X11.5550 Y63.2350
G01 X11.5550 Y63.2350
G01 X11.5550 Y63.2350
G01 X11.5550 Y63.2350
G00 Z2.0000
G00 X9.0150 Y63.2350
G01 F60.00
G01 Z-1.8000
G01 F120.00
G01 X9.0150 Y63.2350
G01 X9.0150 Y63.2350
G01 X9.0150 Y63.2350
G01 X9.0150 Y63.2350
G00 Z2.0000
G00 X6.4750 Y63.2350
G01 F60.00
G01 Z-1.8000
G01 F120.00
G01 X6.4750 Y63.2350
G01 X6.4750 Y63.2350
G01 X6.4750 Y63.2350
G01 X6.4750 Y63.2350
G00 Z2.0000
G00 X3.9350 Y63.2350
G01 F60.00
G01 Z-1.8000
G01 F120.00
G01 X3.9350 Y63.2350
G01 X3.9350 Y63.2350
G01 X3.9350 Y63.2350
G01 X3.9350 Y63.2350
G00 Z2.0000
G00 X10.3950 Y59.5950
G01 F60.00
G01 Z-1.8000
G01 F120.00
G01 X10.3950 Y59.5950
G01 X10.3950 Y59.5950
G01 X10.3950 Y59.5950
G01 X10.3950 Y59.5950
G00 Z2.0000
G00 X10.3950 Y55.7850
G01 F60.00
G01 Z-1.8000
G01 F120.00
G01 X10.3950 Y55.7850
G01 X10.3950 Y55.7850
G01 X10.3950 Y55.7850
G01 X10.3950 Y55.7850
G00 Z2.0000
G00 X10.3950 Y51.9750
G01 F60.00
G01 Z-1.8000
G01 F120.00
G01 X10.3950 Y51.9750
G01 X10.3950 Y51.9750
G01 X10.3950 Y51.9750
G01 X10.3950 Y51.9750
G00 Z2.0000
G00 X11.5550 Y70.8550
G01 F60.00
G01 Z-1.8000
G01 F120.00
G01 X11.5550 Y70.8550
G01 X11.5550 Y70.8550
G01 X11.5550 Y70.8550
G01 X11.5550 Y70.8550
G00 Z2.0000
G00 X9.0150 Y70.8550
G01 F60.00
G01 Z-1.8000
G01 F120.00
G01 X9.0150 Y70.8550
G01 X9.0150 Y70.8550
G01 X9.0150 Y70.8550
G01 X9.0150 Y70.8550
G00 Z2.0000
G00 X6.4750 Y70.8550
G01 F60.00
G01 Z-1.8000
G01 F120.00
G01 X6.4750 Y70.8550
G01 X6.4750 Y70.8550
G01 X6.4750 Y70.8550
G01 X6.4750 Y70.8550
G00 Z2.0000
G00 X3.9350 Y70.8550
G01 F60.00
G01 Z-1.8000
G01 F120.00
G01 X3.9350 Y70.8550
G01 X3.9350 Y70.8550
G01 X3.9350 Y70.8550
G01 X3.9350 Y70.8550
G00 Z2.0000
G00 X7.7450 Y78.4750
G01 F60.00
G01 Z-1.8000
G01 F120.00
G01 X7.7450 Y78.4750
G01 X7.7450 Y78.4750
G01 X7.7450 Y78.4750
G01 X7.7450 Y78.4750
G00 Z2.0000
G00 X10.2850 Y78.4750
G01 F60.00
G01 Z-1.8000
G01 F120.00
G01 X10.2850 Y78.4750
G01 X10.2850 Y78.4750
G01 X10.2850 Y78.4750
G01 X10.2850 Y78.4750
G00 Z2.0000
G00 X12.8250 Y78.4750
G01 F60.00
G01 Z-1.8000
G01 F120.00
G01 X12.8250 Y78.4750
G01 X12.8250 Y78.4750
G01 X12.8250 Y78.4750
G01 X12.8250 Y78.4750
G00 Z2.0000
G00 X15.3650 Y78.4750
G01 F60.00
G01 Z-1.8000
G01 F120.00
G01 X15.3650 Y78.4750
G01 X15.3650 Y78.4750
G01 X15.3650 Y78.4750
G01 X15.3650 Y78.4750
G00 Z2.0000
G00 X17.9050 Y78.4750
G01 F60.00
G01 Z-1.8000
G01 F120.00
G01 X17.9050 Y78.4750
G01 X17.9050 Y78.4750
G01 X17.9050 Y78.4750
G01 X17.9050 Y78.4750
G00 Z2.0000
G00 X20.4450 Y78.4750
G01 F60.00
G01 Z-1.8000
G01 F120.00
G01 X20.4450 Y78.4750
G01 X20.4450 Y78.4750
G01 X20.4450 Y78.4750
G01 X20.4450 Y78.4750
G00 Z2.0000
G00 X22.9850 Y78.4750
G01 F60.00
G01 Z-1.8000
G01 F120.00
G01 X22.9850 Y78.4750
G01 X22.9850 Y78.4750
G01 X22.9850 Y78.4750
G01 X22.9850 Y78.4750
G00 Z2.0000
G00 X25.5250 Y78.4750
G01 F60.00
G01 Z-1.8000
G01 F120.00
G01 X25.5250 Y78.4750
G01 X25.5250 Y78.4750
G01 X25.5250 Y78.4750
G01 X25.5250 Y78.4750
G00 Z2.0000
G00 X28.0650 Y78.4750
G01 F60.00
G01 Z-1.8000
G01 F120.00
G01 X28.0650 Y78.4750
G01 X28.0650 Y78.4750
G01 X28.0650 Y78.4750
G01 X28.0650 Y78.4750
G00 Z2.0000
G00 X30.6050 Y78.4750
G01 F60.00
G01 Z-1.8000
G01 F120.00
G01 X30.6050 Y78.4750
G01 X30.6050 Y78.4750
G01 X30.6050 Y78.4750
G01 X30.6050 Y78.4750
G00 Z2.0000
G00 X33.1450 Y78.4750
G01 F60.00
G01 Z-1.8000
G01 F120.00
G01 X33.1450 Y78.4750
G01 X33.1450 Y78.4750
G01 X33.1450 Y78.4750
G01 X33.1450 Y78.4750
G00 Z2.0000
G00 X35.6850 Y78.4750
G01 F60.00
G01 Z-1.8000
G01 F120.00
G01 X35.6850 Y78.4750
G01 X35.6850 Y78.4750
G01 X35.6850 Y78.4750
G01 X35.6850 Y78.4750
G00 Z2.0000
G00 X38.2250 Y78.4750
G01 F60.00
G01 Z-1.8000
G01 F120.00
G01 X38.2250 Y78.4750
G01 X38.2250 Y78.4750
G01 X38.2250 Y78.4750
G01 X38.2250 Y78.4750
G00 Z2.0000
G00 X40.7650 Y78.4750
G01 F60.00
G01 Z-1.8000
G01 F120.00
G01 X40.7650 Y78.4750
G01 X40.7650 Y78.4750
G01 X40.7650 Y78.4750
G01 X40.7650 Y78.4750
G00 Z2.0000
G00 X40.7650 Y86.0950
G01 F60.00
G01 Z-1.8000
G01 F120.00
G01 X40.7650 Y86.0950
G01 X40.7650 Y86.0950
G01 X40.7650 Y86.0950
G01 X40.7650 Y86.0950
G00 Z2.0000
G00 X38.2250 Y86.0950
G01 F60.00
G01 Z-1.8000
G01 F120.00
G01 X38.2250 Y86.0950
G01 X38.2250 Y86.0950
G01 X38.2250 Y86.0950
G01 X38.2250 Y86.0950
G00 Z2.0000
G00 X35.6850 Y86.0950
G01 F60.00
G01 Z-1.8000
G01 F120.00
G01 X35.6850 Y86.0950
G01 X35.6850 Y86.0950
G01 X35.6850 Y86.0950
G01 X35.6850 Y86.0950
G00 Z2.0000
G00 X33.1450 Y86.0950
G01 F60.00
G01 Z-1.8000
G01 F120.00
G01 X33.1450 Y86.0950
G01 X33.1450 Y86.0950
G01 X33.1450 Y86.0950
G01 X33.1450 Y86.0950
G00 Z2.0000
G00 X30.6050 Y86.0950
G01 F60.00
G01 Z-1.8000
G01 F120.00
G01 X30.6050 Y86.0950
G01 X30.6050 Y86.0950
G01 X30.6050 Y86.0950
G01 X30.6050 Y86.0950
G00 Z2.0000
G00 X28.0650 Y86.0950
G01 F60.00
G01 Z-1.8000
G01 F120.00
G01 X28.0650 Y86.0950
G01 X28.0650 Y86.0950
G01 X28.0650 Y86.0950
G01 X28.0650 Y86.0950
G00 Z2.0000
G00 X25.5250 Y86.0950
G01 F60.00
G01 Z-1.8000
G01 F120.00
G01 X25.5250 Y86.0950
G01 X25.5250 Y86.0950
G01 X25.5250 Y86.0950
G01 X25.5250 Y86.0950
G00 Z2.0000
G00 X22.9850 Y86.0950
G01 F60.00
G01 Z-1.8000
G01 F120.00
G01 X22.9850 Y86.0950
G01 X22.9850 Y86.0950
G01 X22.9850 Y86.0950
G01 X22.9850 Y86.0950
G00 Z2.0000
G00 X20.4450 Y86.0950
G01 F60.00
G01 Z-1.8000
G01 F120.00
G01 X20.4450 Y86.0950
G01 X20.4450 Y86.0950
G01 X20.4450 Y86.0950
G01 X20.4450 Y86.0950
G00 Z2.0000
G00 X17.9050 Y86.0950
G01 F60.00
G01 Z-1.8000
G01 F120.00
G01 X17.9050 Y86.0950
G01 X17.9050 Y86.0950
G01 X17.9050 Y86.0950
G01 X17.9050 Y86.0950
G00 Z2.0000
G00 X15.3650 Y86.0950
G01 F60.00
G01 Z-1.8000
G01 F120.00
G01 X15.3650 Y86.0950
G01 X15.3650 Y86.0950
G01 X15.3650 Y86.0950
G01 X15.3650 Y86.0950
G00 Z2.0000
G00 X12.8250 Y86.0950
G01 F60.00
G01 Z-1.8000
G01 F120.00
G01 X12.8250 Y86.0950
G01 X12.8250 Y86.0950
G01 X12.8250 Y86.0950
G01 X12.8250 Y86.0950
G00 Z2.0000
G00 X10.2850 Y86.0950
G01 F60.00
G01 Z-1.8000
G01 F120.00
G01 X10.2850 Y86.0950
G01 X10.2850 Y86.0950
G01 X10.2850 Y86.0950
G01 X10.2850 Y86.0950
G00 Z2.0000
G00 X7.7450 Y86.0950
G01 F60.00
G01 Z-1.8000
G01 F120.00
G01 X7.7450 Y86.0950
G01 X7.7450 Y86.0950
G01 X7.7450 Y86.0950
G01 X7.7450 Y86.0950
G00 Z2.0000
G00 X32.2250 Y58.1550
G01 F60.00
G01 Z-1.8000
G01 F120.00
G01 X32.2233 Y58.1207
G01 X32.2183 Y58.0867
G01 X32.2099 Y58.0534
G01 X32.1984 Y58.0211
G01 X32.1837 Y57.9900
G01 X32.1660 Y57.9606
G01 X32.1456 Y57.9330
G01 X32.1225 Y57.9075
G01 X32.0971 Y57.8845
G01 X32.0695 Y57.8640
G01 X32.0400 Y57.8463
G01 X32.0090 Y57.8317
G01 X31.9766 Y57.8201
G01 X31.9433 Y57.8117
G01 X31.9093 Y57.8067
G01 X31.8750 Y57.8050
G01 X31.8407 Y57.8067
G01 X31.8067 Y57.8117
G01 X31.7734 Y57.8201
G01 X31.7411 Y57.8317
G01 X31.7100 Y57.8463
G01 X31.6806 Y57.8640
G01 X31.6530 Y57.8845
G01 X31.6275 Y57.9075
G01 X31.6045 Y57.9330
G01 X31.5840 Y57.9606
G01 X31.5663 Y57.9900
G01 X31.5517 Y58.0211
G01 X31.5401 Y58.0534
G01 X31.5317 Y58.0867
G01 X31.5267 Y58.1207
G01 X31.5250 Y58.1550
G01 X31.5267 Y58.1893
G01 X31.5317 Y58.2233
G01 X31.5401 Y58.2566
G01 X31.5517 Y58.2890
G01 X31.5663 Y58.3200
G01 X31.5840 Y58.3495
G01 X31.6045 Y58.3771
G01 X31.6275 Y58.4025
G01 X31.6530 Y58.4256
G01 X31.6806 Y58.4460
G01 X31.7100 Y58.4637
G01 X31.7411 Y58.4784
G01 X31.7734 Y58.4899
G01 X31.8067 Y58.4983
G01 X31.8407 Y58.5033
G01 X31.8750 Y58.5050
G01 X31.9093 Y58.5033
G01 X31.9433 Y58.4983
G01 X31.9766 Y58.4899
G01 X32.0090 Y58.4784
G01 X32.0400 Y58.4637
G01 X32.0695 Y58.4460
G01 X32.0971 Y58.4256
G01 X32.1225 Y58.4025
G01 X32.1456 Y58.3771
G01 X32.1660 Y58.3495
G01 X32.1837 Y58.3200
G01 X32.1984 Y58.2890
G01 X32.2099 Y58.2566
G01 X32.2183 Y58.2233
G01 X32.2233 Y58.1893
G01 X32.2250 Y58.1550
G00 Z2.0000
G00 X37.2850 Y60.6950
G01 F60.00
G01 Z-1.8000
G01 F120.00
G01 X37.2773 Y60.5382
G01 X37.2543 Y60.3829
G01 X37.2161 Y60.2306
G01 X37.1632 Y60.0827
G01 X37.0961 Y59.9408
G01 X37.0154 Y59.8061
G01 X36.9218 Y59.6800
G01 X36.8164 Y59.5636
G01 X36.7000 Y59.4582
G01 X36.5739 Y59.3647
G01 X36.4392 Y59.2839
G01 X36.2973 Y59.2168
G01 X36.1495 Y59.1639
G01 X35.9972 Y59.1258
G01 X35.8418 Y59.1027
G01 X35.6850 Y59.0950
G01 X35.5282 Y59.1027
G01 X35.3729 Y59.1258
G01 X35.2206 Y59.1639
G01 X35.0727 Y59.2168
G01 X34.9308 Y59.2839
G01 X34.7961 Y59.3647
G01 X34.6700 Y59.4582
G01 X34.5536 Y59.5636
G01 X34.4482 Y59.6800
G01 X34.3547 Y59.8061
G01 X34.2739 Y59.9408
G01 X34.2068 Y60.0827
G01 X34.1539 Y60.2306
G01 X34.1158 Y60.3829
G01 X34.0927 Y60.5382
G01 X34.0850 Y60.6950
G01 X34.0927 Y60.8518
G01 X34.1158 Y61.0072
G01 X34.1539 Y61.1595
G01 X34.2068 Y61.3073
G01 X34.2739 Y61.4492
G01 X34.3547 Y61.5839
G01 X34.4482 Y61.7100
G01 X34.5536 Y61.8264
G01 X34.6700 Y61.9318
G01 X34.7961 Y62.0254
G01 X34.9308 Y62.1061
G01 X35.0727 Y62.1732
G01 X35.2206 Y62.2261
G01 X35.3729 Y62.2643
G01 X35.5282 Y62.2873
G01 X35.6850 Y62.2950
G01 X35.8418 Y62.2873
G01 X35.9972 Y62.2643
G01 X36.1495 Y62.2261
G01 X36.2973 Y62.1732
G01 X36.4392 Y62.1061
G01 X36.5739 Y62.0254
G01 X36.7000 Y61.9318
G01 X36.8164 Y61.8264
G01 X36.9218 Y61.7100
G01 X37.0154 Y61.5839
G01 X37.0961 Y61.4492
G01 X37.1632 Y61.3073
G01 X37.2161 Y61.1595
G01 X37.2543 Y61.0072
G01 X37.2773 Y60.8518
G01 X37.2850 Y60.6950
G00 Z2.0000
G00 X38.5750 Y55.6150
G01 F60.00
G01 Z-1.8000
G01 F120.00
G01 X38.5733 Y55.5807
G01 X38.5683 Y55.5467
G01 X38.5599 Y55.5134
G01 X38.5484 Y55.4811
G01 X38.5337 Y55.4500
G01 X38.5160 Y55.4206
G01 X38.4956 Y55.3930
G01 X38.4725 Y55.3675
G01 X38.4471 Y55.3445
G01 X38.4195 Y55.3240
G01 X38.3900 Y55.3063
G01 X38.3590 Y55.2917
G01 X38.3266 Y55.2801
G01 X38.2933 Y55.2717
G01 X38.2593 Y55.2667
G01 X38.2250 Y55.2650
G01 X38.1907 Y55.2667
G01 X38.1567 Y55.2717
G01 X38.1234 Y55.2801
G01 X38.0911 Y55.2917
G01 X38.0600 Y55.3063
G01 X38.0306 Y55.3240
G01 X38.0030 Y55.3445
G01 X37.9775 Y55.3675
G01 X37.9545 Y55.3930
G01 X37.9340 Y55.4206
G01 X37.9163 Y55.4500
G01 X37.9017 Y55.4811
G01 X37.8901 Y55.5134
G01 X37.8817 Y55.5467
G01 X37.8767 Y55.5807
G01 X37.8750 Y55.6150
G01 X37.8767 Y55.6493
G01 X37.8817 Y55.6833
G01 X37.8901 Y55.7166
G01 X37.9017 Y55.7490
G01 X37.9163 Y55.7800
G01 X37.9340 Y55.8095
G01 X37.9545 Y55.8371
G01 X37.9775 Y55.8625
G01 X38.0030 Y55.8856
G01 X38.0306 Y55.9060
G01 X38.0600 Y55.9237
G01 X38.0911 Y55.9384
G01 X38.1234 Y55.9499
G01 X38.1567 Y55.9583
G01 X38.1907 Y55.9633
G01 X38.2250 Y55.9650
G01 X38.2593 Y55.9633
G01 X38.2933 Y55.9583
G01 X38.3266 Y55.9499
G01 X38.3590 Y55.9384
G01 X38.3900 Y55.9237
G01 X38.4195 Y55.9060
G01 X38.4471 Y55.8856
G01 X38.4725 Y55.8625
G01 X38.4956 Y55.8371
G01 X38.5160 Y55.8095
G01 X38.5337 Y55.7800
G01 X38.5484 Y55.7490
G01 X38.5599 Y55.7166
G01 X38.5683 Y55.6833
G01 X38.5733 Y55.6493
G01 X38.5750 Y55.6150
G00 Z2.0000
G00 X52.5450 Y58.1550
G01 F60.00
G01 Z-1.8000
G01 F120.00
G01 X52.5433 Y58.1207
G01 X52.5383 Y58.0867
G01 X52.5299 Y58.0534
G01 X52.5184 Y58.0211
G01 X52.5037 Y57.9900
G01 X52.4860 Y57.9606
G01 X52.4656 Y57.9330
G01 X52.4425 Y57.9075
G01 X52.4171 Y57.8845
G01 X52.3895 Y57.8640
G01 X52.3600 Y57.8463
G01 X52.3290 Y57.8317
G01 X52.2966 Y57.8201
G01 X52.2633 Y57.8117
G01 X52.2293 Y57.8067
G01 X52.1950 Y57.8050
G01 X52.1607 Y57.8067
G01 X52.1267 Y57.8117
G01 X52.0934 Y57.8201
G01 X52.0611 Y57.8317
G01 X52.0300 Y57.8463
G01 X52.0006 Y57.8640
G01 X51.9730 Y57.8845
G01 X51.9475 Y57.9075
G01 X51.9245 Y57.9330
G01 X51.9040 Y57.9606
G01 X51.8863 Y57.9900
G01 X51.8717 Y58.0211
G01 X51.8601 Y58.0534
G01 X51.8517 Y58.0867
G01 X51.8467 Y58.1207
G01 X51.8450 Y58.1550
G01 X51.8467 Y58.1893
G01 X51.8517 Y58.2233
G01 X51.8601 Y58.2566
G01 X51.8717 Y58.2890
G01 X51.8863 Y58.3200
G01 X51.9040 Y58.3495
G01 X51.9245 Y58.3771
G01 X51.9475 Y58.4025
G01 X51.9730 Y58.4256
G01 X52.0006 Y58.4460
G01 X52.0300 Y58.4637
G01 X52.0611 Y58.4784
G01 X52.0934 Y58.4899
G01 X52.1267 Y58.4983
G01 X52.1607 Y58.5033
G01 X52.1950 Y58.5050
G01 X52.2293 Y58.5033
G01 X52.2633 Y58.4983
G01 X52.2966 Y58.4899
G01 X52.3290 Y58.4784
G01 X52.3600 Y58.4637
G01 X52.3895 Y58.4460
G01 X52.4171 Y58.4256
G01 X52.4425 Y58.4025
G01 X52.4656 Y58.3771
G01 X52.4860 Y58.3495
G01 X52.5037 Y58.3200
G01 X52.5184 Y58.2890
G01 X52.5299 Y58.2566
G01 X52.5383 Y58.2233
G01 X52.5433 Y58.1893
G01 X52.5450 Y58.1550
G00 Z2.0000
G00 X57.6050 Y60.6950
G01 F60.00
G01 Z-1.8000
G01 F120.00
G01 X57.5973 Y60.5382
G01 X57.5743 Y60.3829
G01 X57.5361 Y60.2306
G01 X57.4832 Y60.0827
G01 X57.4161 Y59.9408
G01 X57.3354 Y59.8061
G01 X57.2418 Y59.6800
G01 X57.1364 Y59.5636
G01 X57.0200 Y59.4582
G01 X56.8939 Y59.3647
G01 X56.7592 Y59.2839
G01 X56.6173 Y59.2168
G01 X56.4695 Y59.1639
G01 X56.3172 Y59.1258
G01 X56.1618 Y59.1027
G01 X56.0050 Y59.0950
G01 X55.8482 Y59.1027
G01 X55.6929 Y59.1258
G01 X55.5406 Y59.1639
G01 X55.3927 Y59.2168
G01 X55.2508 Y59.2839
G01 X55.1161 Y59.3647
G01 X54.9900 Y59.4582
G01 X54.8736 Y59.5636
G01 X54.7682 Y59.6800
G01 X54.6747 Y59.8061
G01 X54.5939 Y59.9408
G01 X54.5268 Y60.0827
G01 X54.4739 Y60.2306
G01 X54.4358 Y60.3829
G01 X54.4127 Y60.5382
G01 X54.4050 Y60.6950
G01 X54.4127 Y60.8518
G01 X54.4358 Y61.0072
G01 X54.4739 Y61.1595
G01 X54.5268 Y61.3073
G01 X54.5939 Y61.4492
G01 X54.6747 Y61.5839
G01 X54.7682 Y61.7100
G01 X54.8736 Y61.8264
G01 X54.9900 Y61.9318
G01 X55.1161 Y62.0254
G01 X55.2508 Y62.1061
G01 X55.3927 Y62.1732
G01 X55.5406 Y62.2261
G01 X55.6929 Y62.2643
G01 X55.8482 Y62.2873
G01 X56.0050 Y62.2950
G01 X56.1618 Y62.2873
G01 X56.3172 Y62.2643
G01 X56.4695 Y62.2261
G01 X56.6173 Y62.1732
G01 X56.7592 Y62.1061
G01 X56.8939 Y62.0254
G01 X57.0200 Y61.9318
G01 X57.1364 Y61.8264
G01 X57.2418 Y61.7100
G01 X57.3354 Y61.5839
G01 X57.4161 Y61.4492
G01 X57.4832 Y61.3073
G01 X57.5361 Y61.1595
G01 X57.5743 Y61.0072
G01 X57.5973 Y60.8518
G01 X57.6050 Y60.6950
G00 Z2.0000
G00 X58.8950 Y55.6150
G01 F60.00
G01 Z-1.8000
G01 F120.00
G01 X58.8933 Y55.5807
G01 X58.8883 Y55.5467
G01 X58.8799 Y55.5134
G01 X58.8684 Y55.4811
G01 X58.8537 Y55.4500
G01 X58.8360 Y55.4206
G01 X58.8156 Y55.3930
G01 X58.7925 Y55.3675
G01 X58.7671 Y55.3445
G01 X58.7395 Y55.3240
G01 X58.7100 Y55.3063
G01 X58.6790 Y55.2917
G01 X58.6466 Y55.2801
G01 X58.6133 Y55.2717
G01 X58.5793 Y55.2667
G01 X58.5450 Y55.2650
G01 X58.5107 Y55.2667
G01 X58.4767 Y55.2717
G01 X58.4434 Y55.2801
G01 X58.4111 Y55.2917
G01 X58.3800 Y55.3063
G01 X58.3506 Y55.3240
G01 X58.3230 Y55.3445
G01 X58.2975 Y55.3675
G01 X58.2745 Y55.3930
G01 X58.2540 Y55.4206
G01 X58.2363 Y55.4500
G01 X58.2217 Y55.4811
G01 X58.2101 Y55.5134
G01 X58.2017 Y55.5467
G01 X58.1967 Y55.5807
G01 X58.1950 Y55.6150
G01 X58.1967 Y55.6493
G01 X58.2017 Y55.6833
G01 X58.2101 Y55.7166
G01 X58.2217 Y55.7490
G01 X58.2363 Y55.7800
G01 X58.2540 Y55.8095
G01 X58.2745 Y55.8371
G01 X58.2975 Y55.8625
G01 X58.3230 Y55.8856
G01 X58.3506 Y55.9060
G01 X58.3800 Y55.9237
G01 X58.4111 Y55.9384
G01 X58.4434 Y55.9499
G01 X58.4767 Y55.9583
G01 X58.5107 Y55.9633
G01 X58.5450 Y55.9650
G01 X58.5793 Y55.9633
G01 X58.6133 Y55.9583
G01 X58.6466 Y55.9499
G01 X58.6790 Y55.9384
G01 X58.7100 Y55.9237
G01 X58.7395 Y55.9060
G01 X58.7671 Y55.8856
G01 X58.7925 Y55.8625
G01 X58.8156 Y55.8371
G01 X58.8360 Y55.8095
G01 X58.8537 Y55.7800
G01 X58.8684 Y55.7490
G01 X58.8799 Y55.7166
G01 X58.8883 Y55.6833
G01 X58.8933 Y55.6493
G01 X58.8950 Y55.6150
G00 Z2.0000
G00 X72.8650 Y58.1550
G01 F60.00
G01 Z-1.8000
G01 F120.00
G01 X72.8633 Y58.1207
G01 X72.8583 Y58.0867
G01 X72.8499 Y58.0534
G01 X72.8384 Y58.0211
G01 X72.8237 Y57.9900
G01 X72.8060 Y57.9606
G01 X72.7856 Y57.9330
G01 X72.7625 Y57.9075
G01 X72.7371 Y57.8845
G01 X72.7095 Y57.8640
G01 X72.6800 Y57.8463
G01 X72.6490 Y57.8317
G01 X72.6166 Y57.8201
G01 X72.5833 Y57.8117
G01 X72.5493 Y57.8067
G01 X72.5150 Y57.8050
G01 X72.4807 Y57.8067
G01 X72.4467 Y57.8117
G01 X72.4134 Y57.8201
G01 X72.3811 Y57.8317
G01 X72.3500 Y57.8463
G01 X72.3206 Y57.8640
G01 X72.2930 Y57.8845
G01 X72.2675 Y57.9075
G01 X72.2445 Y57.9330
G01 X72.2240 Y57.9606
G01 X72.2063 Y57.9900
G01 X72.1917 Y58.0211
G01 X72.1801 Y58.0534
G01 X72.1717 Y58.0867
G01 X72.1667 Y58.1207
G01 X72.1650 Y58.1550
G01 X72.1667 Y58.1893
G01 X72.1717 Y58.2233
G01 X72.1801 Y58.2566
G01 X72.1917 Y58.2890
G01 X72.2063 Y58.3200
G01 X72.2240 Y58.3495
G01 X72.2445 Y58.3771
G01 X72.2675 Y58.4025
G01 X72.2930 Y58.4256
G01 X72.3206 Y58.4460
G01 X72.3500 Y58.4637
G01 X72.3811 Y58.4784
G01 X72.4134 Y58.4899
G01 X72.4467 Y58.4983
G01 X72.4807 Y58.5033
G01 X72.5150 Y58.5050
G01 X72.5493 Y58.5033
G01 X72.5833 Y58.4983
G01 X72.6166 Y58.4899
G01 X72.6490 Y58.4784
G01 X72.6800 Y58.4637
G01 X72.7095 Y58.4460
G01 X72.7371 Y58.4256
G01 X72.7625 Y58.4025
G01 X72.7856 Y58.3771
G01 X72.8060 Y58.3495
G01 X72.8237 Y58.3200
G01 X72.8384 Y58.2890
G01 X72.8499 Y58.2566
G01 X72.8583 Y58.2233
G01 X72.8633 Y58.1893
G01 X72.8650 Y58.1550
G00 Z2.0000
G00 X77.9250 Y60.6950
G01 F60.00
G01 Z-1.8000
G01 F120.00
G01 X77.9173 Y60.5382
G01 X77.8943 Y60.3829
G01 X77.8561 Y60.2306
G01 X77.8032 Y60.0827
G01 X77.7361 Y59.9408
G01 X77.6554 Y59.8061
G01 X77.5618 Y59.6800
G01 X77.4564 Y59.5636
G01 X77.3400 Y59.4582
G01 X77.2139 Y59.3647
G01 X77.0792 Y59.2839
G01 X76.9373 Y59.2168
G01 X76.7895 Y59.1639
G01 X76.6372 Y59.1258
G01 X76.4818 Y59.1027
G01 X76.3250 Y59.0950
G01 X76.1682 Y59.1027
G01 X76.0129 Y59.1258
G01 X75.8606 Y59.1639
G01 X75.7127 Y59.2168
G01 X75.5708 Y59.2839
G01 X75.4361 Y59.3647
G01 X75.3100 Y59.4582
G01 X75.1936 Y59.5636
G01 X75.0882 Y59.6800
G01 X74.9947 Y59.8061
G01 X74.9139 Y59.9408
G01 X74.8468 Y60.0827
G01 X74.7939 Y60.2306
G01 X74.7558 Y60.3829
G01 X74.7327 Y60.5382
G01 X74.7250 Y60.6950
G01 X74.7327 Y60.8518
G01 X74.7558 Y61.0072
G01 X74.7939 Y61.1595
G01 X74.8468 Y61.3073
G01 X74.9139 Y61.4492
G01 X74.9947 Y61.5839
G01 X75.0882 Y61.7100
G01 X75.1936 Y61.8264
G01 X75.3100 Y61.9318
G01 X75.4361 Y62.0254
G01 X75.5708 Y62.1061
G01 X75.7127 Y62.1732
G01 X75.8606 Y62.2261
G01 X76.0129 Y62.2643
G01 X76.1682 Y62.2873
G01 X76.3250 Y62.2950
G01 X76.4818 Y62.2873
G01 X76.6372 Y62.2643
G01 X76.7895 Y62.2261
G01 X76.9373 Y62.1732
G01 X77.0792 Y62.1061
G01 X77.2139 Y62.0254
G01 X77.3400 Y61.9318
G01 X77.4564 Y61.8264
G01 X77.5618 Y61.7100
G01 X77.6554 Y61.5839
G01 X77.7361 Y61.4492
G01 X77.8032 Y61.3073
G01 X77.8561 Y61.1595
G01 X77.8943 Y61.0072
G01 X77.9173 Y60.8518
G01 X77.9250 Y60.6950
G00 Z2.0000
G00 X79.2150 Y55.6150
G01 F60.00
G01 Z-1.8000
G01 F120.00
G01 X79.2133 Y55.5807
G01 X79.2083 Y55.5467
G01 X79.1999 Y55.5134
G01 X79.1884 Y55.4811
G01 X79.1737 Y55.4500
G01 X79.1560 Y55.4206
G01 X79.1356 Y55.3930
G01 X79.1125 Y55.3675
G01 X79.0871 Y55.3445
G01 X79.0595 Y55.3240
G01 X79.0300 Y55.3063
G01 X78.9990 Y55.2917
G01 X78.9666 Y55.2801
G01 X78.9333 Y55.2717
G01 X78.8993 Y55.2667
G01 X78.8650 Y55.2650
G01 X78.8307 Y55.2667
G01 X78.7967 Y55.2717
G01 X78.7634 Y55.2801
G01 X78.7311 Y55.2917
G01 X78.7000 Y55.3063
G01 X78.6706 Y55.3240
G01 X78.6430 Y55.3445
G01 X78.6175 Y55.3675
G01 X78.5945 Y55.3930
G01 X78.5740 Y55.4206
G01 X78.5563 Y55.4500
G01 X78.5417 Y55.4811
G01 X78.5301 Y55.5134
G01 X78.5217 Y55.5467
G01 X78.5167 Y55.5807
G01 X78.5150 Y55.6150
G01 X78.5167 Y55.6493
G01 X78.5217 Y55.6833
G01 X78.5301 Y55.7166
G01 X78.5417 Y55.7490
G01 X78.5563 Y55.7800
G01 X78.5740 Y55.8095
G01 X78.5945 Y55.8371
G01 X78.6175 Y55.8625
G01 X78.6430 Y55.8856
G01 X78.6706 Y55.9060
G01 X78.7000 Y55.9237
G01 X78.7311 Y55.9384
G01 X78.7634 Y55.9499
G01 X78.7967 Y55.9583
G01 X78.8307 Y55.9633
G01 X78.8650 Y55.9650
G01 X78.8993 Y55.9633
G01 X78.9333 Y55.9583
G01 X78.9666 Y55.9499
G01 X78.9990 Y55.9384
G01 X79.0300 Y55.9237
G01 X79.0595 Y55.9060
G01 X79.0871 Y55.8856
G01 X79.1125 Y55.8625
G01 X79.1356 Y55.8371
G01 X79.1560 Y55.8095
G01 X79.1737 Y55.7800
G01 X79.1884 Y55.7490
G01 X79.1999 Y55.7166
G01 X79.2083 Y55.6833
G01 X79.2133 Y55.6493
G01 X79.2150 Y55.6150
G00 Z2.0000
G00 X77.9250 Y40.3750
G01 F60.00
G01 Z-1.8000
G01 F120.00
G01 X77.9173 Y40.2182
G01 X77.8943 Y40.0629
G01 X77.8561 Y39.9106
G01 X77.8032 Y39.7627
G01 X77.7361 Y39.6208
G01 X77.6554 Y39.4861
G01 X77.5618 Y39.3600
G01 X77.4564 Y39.2436
G01 X77.3400 Y39.1382
G01 X77.2139 Y39.0447
G01 X77.0792 Y38.9639
G01 X76.9373 Y38.8968
G01 X76.7895 Y38.8439
G01 X76.6372 Y38.8058
G01 X76.4818 Y38.7827
G01 X76.3250 Y38.7750
G01 X76.1682 Y38.7827
G01 X76.0129 Y38.8058
G01 X75.8606 Y38.8439
G01 X75.7127 Y38.8968
G01 X75.5708 Y38.9639
G01 X75.4361 Y39.0447
G01 X75.3100 Y39.1382
G01 X75.1936 Y39.2436
G01 X75.0882 Y39.3600
G01 X74.9947 Y39.4861
G01 X74.9139 Y39.6208
G01 X74.8468 Y39.7627
G01 X74.7939 Y39.9106
G01 X74.7558 Y40.0629
G01 X74.7327 Y40.2182
G01 X74.7250 Y40.3750
G01 X74.7327 Y40.5318
G01 X74.7558 Y40.6872
G01 X74.7939 Y40.8395
G01 X74.8468 Y40.9873
G01 X74.9139 Y41.1292
G01 X74.9947 Y41.2639
G01 X75.0882 Y41.3900
G01 X75.1936 Y41.5064
G01 X75.3100 Y41.6118
G01 X75.4361 Y41.7054
G01 X75.5708 Y41.7861
G01 X75.7127 Y41.8532
G01 X75.8606 Y41.9061
G01 X76.0129 Y41.9443
G01 X76.1682 Y41.9673
G01 X76.3250 Y41.9750
G01 X76.4818 Y41.9673
G01 X76.6372 Y41.9443
G01 X76.7895 Y41.9061
G01 X76.9373 Y41.8532
G01 X77.0792 Y41.7861
G01 X77.2139 Y41.7054
G01 X77.3400 Y41.6118
G01 X77.4564 Y41.5064
G01 X77.5618 Y41.3900
G01 X77.6554 Y41.2639
G01 X77.7361 Y41.1292
G01 X77.8032 Y40.9873
G01 X77.8561 Y40.8395
G01 X77.8943 Y40.6872
G01 X77.9173 Y40.5318
G01 X77.9250 Y40.3750
G00 Z2.0000
G00 X79.2150 Y35.2950
G01 F60.00
G01 Z-1.8000
G01 F120.00
G01 X79.2133 Y35.2607
G01 X79.2083 Y35.2267
G01 X79.1999 Y35.1934
G01 X79.1884 Y35.1611
G01 X79.1737 Y35.1300
G01 X79.1560 Y35.1006
G01 X79.1356 Y35.0730
G01 X79.1125 Y35.0475
G01 X79.0871 Y35.0245
G01 X79.0595 Y35.0040
G01 X79.0300 Y34.9863
G01 X78.9990 Y34.9717
G01 X78.9666 Y34.9601
G01 X78.9333 Y34.9517
G01 X78.8993 Y34.9467
G01 X78.8650 Y34.9450
G01 X78.8307 Y34.9467
G01 X78.7967 Y34.9517
G01 X78.7634 Y34.9601
G01 X78.7311 Y34.9717
G01 X78.7000 Y34.9863
G01 X78.6706 Y35.0040
G01 X78.6430 Y35.0245
G01 X78.6175 Y35.0475
G01 X78.5945 Y35.0730
G01 X78.5740 Y35.1006
G01 X78.5563 Y35.1300
G01 X78.5417 Y35.1611
G01 X78.5301 Y35.1934
G01 X78.5217 Y35.2267
G01 X78.5167 Y35.2607
G01 X78.5150 Y35.2950
G01 X78.5167 Y35.3293
G01 X78.5217 Y35.3633
G01 X78.5301 Y35.3966
G01 X78.5417 Y35.4290
G01 X78.5563 Y35.4600
G01 X78.5740 Y35.4895
G01 X78.5945 Y35.5171
G01 X78.6175 Y35.5425
G01 X78.6430 Y35.5656
G01 X78.6706 Y35.5860
G01 X78.7000 Y35.6037
G01 X78.7311 Y35.6184
G01 X78.7634 Y35.6299
G01 X78.7967 Y35.6383
G01 X78.8307 Y35.6433
G01 X78.8650 Y35.6450
G01 X78.8993 Y35.6433
G01 X78.9333 Y35.6383
G01 X78.9666 Y35.6299
G01 X78.9990 Y35.6184
G01 X79.0300 Y35.6037
G01 X79.0595 Y35.5860
G01 X79.0871 Y35.5656
G01 X79.1125 Y35.5425
G01 X79.1356 Y35.5171
G01 X79.1560 Y35.4895
G01 X79.1737 Y35.4600
G01 X79.1884 Y35.4290
G01 X79.1999 Y35.3966
G01 X79.2083 Y35.3633
G01 X79.2133 Y35.3293
G01 X79.2150 Y35.2950
G00 Z2.0000
G00 X72.8650 Y37.8350
G01 F60.00
G01 Z-1.8000
G01 F120.00
G01 X72.8633 Y37.8007
G01 X72.8583 Y37.7667
G01 X72.8499 Y37.7334
G01 X72.8384 Y37.7011
G01 X72.8237 Y37.6700
G01 X72.8060 Y37.6406
G01 X72.7856 Y37.6130
G01 X72.7625 Y37.5875
G01 X72.7371 Y37.5645
G01 X72.7095 Y37.5440
G01 X72.6800 Y37.5263
G01 X72.6490 Y37.5117
G01 X72.6166 Y37.5001
G01 X72.5833 Y37.4917
G01 X72.5493 Y37.4867
G01 X72.5150 Y37.4850
G01 X72.4807 Y37.4867
G01 X72.4467 Y37.4917
G01 X72.4134 Y37.5001
G01 X72.3811 Y37.5117
G01 X72.3500 Y37.5263
G01 X72.3206 Y37.5440
G01 X72.2930 Y37.5645
G01 X72.2675 Y37.5875
G01 X72.2445 Y37.6130
G01 X72.2240 Y37.6406
G01 X72.2063 Y37.6700
G01 X72.1917 Y37.7011
G01 X72.1801 Y37.7334
G01 X72.1717 Y37.7667
G01 X72.1667 Y37.8007
G01 X72.1650 Y37.8350
G01 X72.1667 Y37.8693
G01 X72.1717 Y37.9033
G01 X72.1801 Y37.9366
G01 X72.1917 Y37.9690
G01 X72.2063 Y38.0000
G01 X72.2240 Y38.0295
G01 X72.2445 Y38.0571
G01 X72.2675 Y38.0825
G01 X72.2930 Y38.1056
G01 X72.3206 Y38.1260
G01 X72.3500 Y38.1437
G01 X72.3811 Y38.1584
G01 X72.4134 Y38.1699
G01 X72.4467 Y38.1783
G01 X72.4807 Y38.1833
G01 X72.5150 Y38.1850
G01 X72.5493 Y38.1833
G01 X72.5833 Y38.1783
G01 X72.6166 Y38.1699
G01 X72.6490 Y38.1584
G01 X72.6800 Y38.1437
G01 X72.7095 Y38.1260
G01 X72.7371 Y38.1056
G01 X72.7625 Y38.0825
G01 X72.7856 Y38.0571
G01 X72.8060 Y38.0295
G01 X72.8237 Y38.0000
G01 X72.8384 Y37.9690
G01 X72.8499 Y37.9366
G01 X72.8583 Y37.9033
G01 X72.8633 Y37.8693
G01 X72.8650 Y37.8350
G00 Z2.0000
G00 X58.8950 Y35.2950
G01 F60.00
G01 Z-1.8000
G01 F120.00
G01 X58.8933 Y35.2607
G01 X58.8883 Y35.2267
G01 X58.8799 Y35.1934
G01 X58.8684 Y35.1611
G01 X58.8537 Y35.1300
G01 X58.8360 Y35.1006
G01 X58.8156 Y35.0730
G01 X58.7925 Y35.0475
G01 X58.7671 Y35.0245
G01 X58.7395 Y35.0040
G01 X58.7100 Y34.9863
G01 X58.6790 Y34.9717
G01 X58.6466 Y34.9601
G01 X58.6133 Y34.9517
G01 X58.5793 Y34.9467
G01 X58.5450 Y34.9450
G01 X58.5107 Y34.9467
G01 X58.4767 Y34.9517
G01 X58.4434 Y34.9601
G01 X58.4111 Y34.9717
G01 X58.3800 Y34.9863
G01 X58.3506 Y35.0040
G01 X58.3230 Y35.0245
G01 X58.2975 Y35.0475
G01 X58.2745 Y35.0730
G01 X58.2540 Y35.1006
G01 X58.2363 Y35.1300
G01 X58.2217 Y35.1611
G01 X58.2101 Y35.1934
G01 X58.2017 Y35.2267
G01 X58.1967 Y35.2607
G01 X58.1950 Y35.2950
G01 X58.1967 Y35.3293
G01 X58.2017 Y35.3633
G01 X58.2101 Y35.3966
G01 X58.2217 Y35.4290
G01 X58.2363 Y35.4600
G01 X58.2540 Y35.4895
G01 X58.2745 Y35.5171
G01 X58.2975 Y35.5425
G01 X58.3230 Y35.5656
G01 X58.3506 Y35.5860
G01 X58.3800 Y35.6037
G01 X58.4111 Y35.6184
G01 X58.4434 Y35.6299
G01 X58.4767 Y35.6383
G01 X58.5107 Y35.6433
G01 X58.5450 Y35.6450
G01 X58.5793 Y35.6433
G01 X58.6133 Y35.6383
G01 X58.6466 Y35.6299
G01 X58.6790 Y35.6184
G01 X58.7100 Y35.6037
G01 X58.7395 Y35.5860
G01 X58.7671 Y35.5656
G01 X58.7925 Y35.5425
G01 X58.8156 Y35.5171
G01 X58.8360 Y35.4895
G01 X58.8537 Y35.4600
G01 X58.8684 Y35.4290
G01 X58.8799 Y35.3966
G01 X58.8883 Y35.3633
G01 X58.8933 Y35.3293
G01 X58.8950 Y35.2950
G00 Z2.0000
G00 X57.6050 Y40.3750
G01 F60.00
G01 Z-1.8000
G01 F120.00
G01 X57.5973 Y40.2182
G01 X57.5743 Y40.0629
G01 X57.5361 Y39.9106
G01 X57.4832 Y39.7627
G01 X57.4161 Y39.6208
G01 X57.3354 Y39.4861
G01 X57.2418 Y39.3600
G01 X57.1364 Y39.2436
G01 X57.0200 Y39.1382
G01 X56.8939 Y39.0447
G01 X56.7592 Y38.9639
G01 X56.6173 Y38.8968
G01 X56.4695 Y38.8439
G01 X56.3172 Y38.8058
G01 X56.1618 Y38.7827
G01 X56.0050 Y38.7750
G01 X55.8482 Y38.7827
G01 X55.6929 Y38.8058
G01 X55.5406 Y38.8439
G01 X55.3927 Y38.8968
G01 X55.2508 Y38.9639
G01 X55.1161 Y39.0447
G01 X54.9900 Y39.1382
G01 X54.8736 Y39.2436
G01 X54.7682 Y39.3600
G01 X54.6747 Y39.4861
G01 X54.5939 Y39.6208
G01 X54.5268 Y39.7627
G01 X54.4739 Y39.9106
G01 X54.4358 Y40.0629
G01 X54.4127 Y40.2182
G01 X54.4050 Y40.3750
G01 X54.4127 Y40.5318
G01 X54.4358 Y40.6872
G01 X54.4739 Y40.8395
G01 X54.5268 Y40.9873
G01 X54.5939 Y41.1292
G01 X54.6747 Y41.2639
G01 X54.7682 Y41.3900
G01 X54.8736 Y41.5064
G01 X54.9900 Y41.6118
G01 X55.1161 Y41.7054
G01 X55.2508 Y41.7861
G01 X55.3927 Y41.8532
G01 X55.5406 Y41.9061
G01 X55.6929 Y41.9443
G01 X55.8482 Y41.9673
G01 X56.0050 Y41.9750
G01 X56.1618 Y41.9673
G01 X56.3172 Y41.9443
G01 X56.4695 Y41.9061
G01 X56.6173 Y41.8532
G01 X56.7592 Y41.7861
G01 X56.8939 Y41.7054
G01 X57.0200 Y41.6118
G01 X57.1364 Y41.5064
G01 X57.2418 Y41.3900
G01 X57.3354 Y41.2639
G01 X57.4161 Y41.1292
G01 X57.4832 Y40.9873
G01 X57.5361 Y40.8395
G01 X57.5743 Y40.6872
G01 X57.5973 Y40.5318
G01 X57.6050 Y40.3750
G00 Z2.0000
G00 X52.5450 Y37.8350
G01 F60.00
G01 Z-1.8000
G01 F120.00
G01 X52.5433 Y37.8007
G01 X52.5383 Y37.7667
G01 X52.5299 Y37.7334
G01 X52.5184 Y37.7011
G01 X52.5037 Y37.6700
G01 X52.4860 Y37.6406
G01 X52.4656 Y37.6130
G01 X52.4425 Y37.5875
G01 X52.4171 Y37.5645
G01 X52.3895 Y37.5440
G01 X52.3600 Y37.5263
G01 X52.3290 Y37.5117
G01 X52.2966 Y37.5001
G01 X52.2633 Y37.4917
G01 X52.2293 Y37.4867
G01 X52.1950 Y37.4850
G01 X52.1607 Y37.4867
G01 X52.1267 Y37.4917
G01 X52.0934 Y37.5001
G01 X52.0611 Y37.5117
G01 X52.0300 Y37.5263
G01 X52.0006 Y37.5440
G01 X51.9730 Y37.5645
G01 X51.9475 Y37.5875
G01 X51.9245 Y37.6130
G01 X51.9040 Y37.6406
G01 X51.8863 Y37.6700
G01 X51.8717 Y37.7011
G01 X51.8601 Y37.7334
G01 X51.8517 Y37.7667
G01 X51.8467 Y37.8007
G01 X51.8450 Y37.8350
G01 X51.8467 Y37.8693
G01 X51.8517 Y37.9033
G01 X51.8601 Y37.9366
G01 X51.8717 Y37.9690
G01 X51.8863 Y38.0000
G01 X51.9040 Y38.0295
G01 X51.9245 Y38.0571
G01 X51.9475 Y38.0825
G01 X51.9730 Y38.1056
G01 X52.0006 Y38.1260
G01 X52.0300 Y38.1437
G01 X52.0611 Y38.1584
G01 X52.0934 Y38.1699
G01 X52.1267 Y38.1783
G01 X52.1607 Y38.1833
G01 X52.1950 Y38.1850
G01 X52.2293 Y38.1833
G01 X52.2633 Y38.1783
G01 X52.2966 Y38.1699
G01 X52.3290 Y38.1584
G01 X52.3600 Y38.1437
G01 X52.3895 Y38.1260
G01 X52.4171 Y38.1056
G01 X52.4425 Y38.0825
G01 X52.4656 Y38.0571
G01 X52.4860 Y38.0295
G01 X52.5037 Y38.0000
G01 X52.5184 Y37.9690
G01 X52.5299 Y37.9366
G01 X52.5383 Y37.9033
G01 X52.5433 Y37.8693
G01 X52.5450 Y37.8350
G00 Z2.0000
G00 X38.5750 Y35.2950
G01 F60.00
G01 Z-1.8000
G01 F120.00
G01 X38.5733 Y35.2607
G01 X38.5683 Y35.2267
G01 X38.5599 Y35.1934
G01 X38.5484 Y35.1611
G01 X38.5337 Y35.1300
G01 X38.5160 Y35.1006
G01 X38.4956 Y35.0730
G01 X38.4725 Y35.0475
G01 X38.4471 Y35.0245
G01 X38.4195 Y35.0040
G01 X38.3900 Y34.9863
G01 X38.3590 Y34.9717
G01 X38.3266 Y34.9601
G01 X38.2933 Y34.9517
G01 X38.2593 Y34.9467
G01 X38.2250 Y34.9450
G01 X38.1907 Y34.9467
G01 X38.1567 Y34.9517
G01 X38.1234 Y34.9601
G01 X38.0911 Y34.9717
G01 X38.0600 Y34.9863
G01 X38.0306 Y35.0040
G01 X38.0030 Y35.0245
G01 X37.9775 Y35.0475
G01 X37.9545 Y35.0730
G01 X37.9340 Y35.1006
G01 X37.9163 Y35.1300
G01 X37.9017 Y35.1611
G01 X37.8901 Y35.1934
G01 X37.8817 Y35.2267
G01 X37.8767 Y35.2607
G01 X37.8750 Y35.2950
G01 X37.8767 Y35.3293
G01 X37.8817 Y35.3633
G01 X37.8901 Y35.3966
G01 X37.9017 Y35.4290
G01 X37.9163 Y35.4600
G01 X37.9340 Y35.4895
G01 X37.9545 Y35.5171
G01 X37.9775 Y35.5425
G01 X38.0030 Y35.5656
G01 X38.0306 Y35.5860
G01 X38.0600 Y35.6037
G01 X38.0911 Y35.6184
G01 X38.1234 Y35.6299
G01 X38.1567 Y35.6383
G01 X38.1907 Y35.6433
G01 X38.2250 Y35.6450
G01 X38.2593 Y35.6433
G01 X38.2933 Y35.6383
G01 X38.3266 Y35.6299
G01 X38.3590 Y35.6184
G01 X38.3900 Y35.6037
G01 X38.4195 Y35.5860
G01 X38.4471 Y35.5656
G01 X38.4725 Y35.5425
G01 X38.4956 Y35.5171
G01 X38.5160 Y35.4895
G01 X38.5337 Y35.4600
G01 X38.5484 Y35.4290
G01 X38.5599 Y35.3966
G01 X38.5683 Y35.3633
G01 X38.5733 Y35.3293
G01 X38.5750 Y35.2950
G00 Z2.0000
G00 X37.2850 Y40.3750
G01 F60.00
G01 Z-1.8000
G01 F120.00
G01 X37.2773 Y40.2182
G01 X37.2543 Y40.0629
G01 X37.2161 Y39.9106
G01 X37.1632 Y39.7627
G01 X37.0961 Y39.6208
G01 X37.0154 Y39.4861
G01 X36.9218 Y39.3600
G01 X36.8164 Y39.2436
G01 X36.7000 Y39.1382
G01 X36.5739 Y39.0447
G01 X36.4392 Y38.9639
G01 X36.2973 Y38.8968
G01 X36.1495 Y38.8439
G01 X35.9972 Y38.8058
G01 X35.8418 Y38.7827
G01 X35.6850 Y38.7750
G01 X35.5282 Y38.7827
G01 X35.3729 Y38.8058
G01 X35.2206 Y38.8439
G01 X35.0727 Y38.8968
G01 X34.9308 Y38.9639
G01 X34.7961 Y39.0447
G01 X34.6700 Y39.1382
G01 X34.5536 Y39.2436
G01 X34.4482 Y39.3600
G01 X34.3547 Y39.4861
G01 X34.2739 Y39.6208
G01 X34.2068 Y39.7627
G01 X34.1539 Y39.9106
G01 X34.1158 Y40.0629
G01 X34.0927 Y40.2182
G01 X34.0850 Y40.3750
G01 X34.0927 Y40.5318
G01 X34.1158 Y40.6872
G01 X34.1539 Y40.8395
G01 X34.2068 Y40.9873
G01 X34.2739 Y41.1292
G01 X34.3547 Y41.2639
G01 X34.4482 Y41.3900
G01 X34.5536 Y41.5064
G01 X34.6700 Y41.6118
G01 X34.7961 Y41.7054
G01 X34.9308 Y41.7861
G01 X35.0727 Y41.8532
G01 X35.2206 Y41.9061
G01 X35.3729 Y41.9443
G01 X35.5282 Y41.9673
G01 X35.6850 Y41.9750
G01 X35.8418 Y41.9673
G01 X35.9972 Y41.9443
G01 X36.1495 Y41.9061
G01 X36.2973 Y41.8532
G01 X36.4392 Y41.7861
G01 X36.5739 Y41.7054
G01 X36.7000 Y41.6118
G01 X36.8164 Y41.5064
G01 X36.9218 Y41.3900
G01 X37.0154 Y41.2639
G01 X37.0961 Y41.1292
G01 X37.1632 Y40.9873
G01 X37.2161 Y40.8395
G01 X37.2543 Y40.6872
G01 X37.2773 Y40.5318
G01 X37.2850 Y40.3750
G00 Z2.0000
G00 X32.2250 Y37.8350
G01 F60.00
G01 Z-1.8000
G01 F120.00
G01 X32.2233 Y37.8007
G01 X32.2183 Y37.7667
G01 X32.2099 Y37.7334
G01 X32.1984 Y37.7011
G01 X32.1837 Y37.6700
G01 X32.1660 Y37.6406
G01 X32.1456 Y37.6130
G01 X32.1225 Y37.5875
G01 X32.0971 Y37.5645
G01 X32.0695 Y37.5440
G01 X32.0400 Y37.5263
G01 X32.0090 Y37.5117
G01 X31.9766 Y37.5001
G01 X31.9433 Y37.4917
G01 X31.9093 Y37.4867
G01 X31.8750 Y37.4850
G01 X31.8407 Y37.4867
G01 X31.8067 Y37.4917
G01 X31.7734 Y37.5001
G01 X31.7411 Y37.5117
G01 X31.7100 Y37.5263
G01 X31.6806 Y37.5440
G01 X31.6530 Y37.5645
G01 X31.6275 Y37.5875
G01 X31.6045 Y37.6130
G01 X31.5840 Y37.6406
G01 X31.5663 Y37.6700
G01 X31.5517 Y37.7011
G01 X31.5401 Y37.7334
G01 X31.5317 Y37.7667
G01 X31.5267 Y37.8007
G01 X31.5250 Y37.8350
G01 X31.5267 Y37.8693
G01 X31.5317 Y37.9033
G01 X31.5401 Y37.9366
G01 X31.5517 Y37.9690
G01 X31.5663 Y38.0000
G01 X31.5840 Y38.0295
G01 X31.6045 Y38.0571
G01 X31.6275 Y38.0825
G01 X31.6530 Y38.1056
G01 X31.6806 Y38.1260
G01 X31.7100 Y38.1437
G01 X31.7411 Y38.1584
G01 X31.7734 Y38.1699
G01 X31.8067 Y38.1783
G01 X31.8407 Y38.1833
G01 X31.8750 Y38.1850
G01 X31.9093 Y38.1833
G01 X31.9433 Y38.1783
G01 X31.9766 Y38.1699
G01 X32.0090 Y38.1584
G01 X32.0400 Y38.1437
G01 X32.0695 Y38.1260
G01 X32.0971 Y38.1056
G01 X32.1225 Y38.0825
G01 X32.1456 Y38.0571
G01 X32.1660 Y38.0295
G01 X32.1837 Y38.0000
G01 X32.1984 Y37.9690
G01 X32.2099 Y37.9366
G01 X32.2183 Y37.9033
G01 X32.2233 Y37.8693
G01 X32.2250 Y37.8350
G00 Z2.0000
G00 X37.2850 Y20.0550
G01 F60.00
G01 Z-1.8000
G01 F120.00
G01 X37.2773 Y19.8982
G01 X37.2543 Y19.7429
G01 X37.2161 Y19.5906
G01 X37.1632 Y19.4427
G01 X37.0961 Y19.3008
G01 X37.0154 Y19.1661
G01 X36.9218 Y19.0400
G01 X36.8164 Y18.9236
G01 X36.7000 Y18.8182
G01 X36.5739 Y18.7247
G01 X36.4392 Y18.6439
G01 X36.2973 Y18.5768
G01 X36.1495 Y18.5239
G01 X35.9972 Y18.4858
G01 X35.8418 Y18.4627
G01 X35.6850 Y18.4550
G01 X35.5282 Y18.4627
G01 X35.3729 Y18.4858
G01 X35.2206 Y18.5239
G01 X35.0727 Y18.5768
G01 X34.9308 Y18.6439
G01 X34.7961 Y18.7247
G01 X34.6700 Y18.8182
G01 X34.5536 Y18.9236
G01 X34.4482 Y19.0400
G01 X34.3547 Y19.1661
G01 X34.2739 Y19.3008
G01 X34.2068 Y19.4427
G01 X34.1539 Y19.5906
G01 X34.1158 Y19.7429
G01 X34.0927 Y19.8982
G01 X34.0850 Y20.0550
G01 X34.0927 Y20.2118
G01 X34.1158 Y20.3672
G01 X34.1539 Y20.5195
G01 X34.2068 Y20.6673
G01 X34.2739 Y20.8092
G01 X34.3547 Y20.9439
G01 X34.4482 Y21.0700
G01 X34.5536 Y21.1864
G01 X34.6700 Y21.2918
G01 X34.7961 Y21.3854
G01 X34.9308 Y21.4661
G01 X35.0727 Y21.5332
G01 X35.2206 Y21.5861
G01 X35.3729 Y21.6243
G01 X35.5282 Y21.6473
G01 X35.6850 Y21.6550
G01 X35.8418 Y21.6473
G01 X35.9972 Y21.6243
G01 X36.1495 Y21.5861
G01 X36.2973 Y21.5332
G01 X36.4392 Y21.4661
G01 X36.5739 Y21.3854
G01 X36.7000 Y21.2918
G01 X36.8164 Y21.1864
G01 X36.9218 Y21.0700
G01 X37.0154 Y20.9439
G01 X37.0961 Y20.8092
G01 X37.1632 Y20.6673
G01 X37.2161 Y20.5195
G01 X37.2543 Y20.3672
G01 X37.2773 Y20.2118
G01 X37.2850 Y20.0550
G00 Z2.0000
G00 X38.5750 Y14.9750
G01 F60.00
G01 Z-1.8000
G01 F120.00
G01 X38.5733 Y14.9407
G01 X38.5683 Y14.9067
G01 X38.5599 Y14.8734
G01 X38.5484 Y14.8411
G01 X38.5337 Y14.8100
G01 X38.5160 Y14.7806
G01 X38.4956 Y14.7530
G01 X38.4725 Y14.7275
G01 X38.4471 Y14.7045
G01 X38.4195 Y14.6840
G01 X38.3900 Y14.6663
G01 X38.3590 Y14.6517
G01 X38.3266 Y14.6401
G01 X38.2933 Y14.6317
G01 X38.2593 Y14.6267
G01 X38.2250 Y14.6250
G01 X38.1907 Y14.6267
G01 X38.1567 Y14.6317
G01 X38.1234 Y14.6401
G01 X38.0911 Y14.6517
G01 X38.0600 Y14.6663
G01 X38.0306 Y14.6840
G01 X38.0030 Y14.7045
G01 X37.9775 Y14.7275
G01 X37.9545 Y14.7530
G01 X37.9340 Y14.7806
G01 X37.9163 Y14.8100
G01 X37.9017 Y14.8411
G01 X37.8901 Y14.8734
G01 X37.8817 Y14.9067
G01 X37.8767 Y14.9407
G01 X37.8750 Y14.9750
G01 X37.8767 Y15.0093
G01 X37.8817 Y15.0433
G01 X37.8901 Y15.0766
G01 X37.9017 Y15.1090
G01 X37.9163 Y15.1400
G01 X37.9340 Y15.1695
G01 X37.9545 Y15.1971
G01 X37.9775 Y15.2225
G01 X38.0030 Y15.2456
G01 X38.0306 Y15.2660
G01 X38.0600 Y15.2837
G01 X38.0911 Y15.2984
G01 X38.1234 Y15.3099
G01 X38.1567 Y15.3183
G01 X38.1907 Y15.3233
G01 X38.2250 Y15.3250
G01 X38.2593 Y15.3233
G01 X38.2933 Y15.3183
G01 X38.3266 Y15.3099
G01 X38.3590 Y15.2984
G01 X38.3900 Y15.2837
G01 X38.4195 Y15.2660
G01 X38.4471 Y15.2456
G01 X38.4725 Y15.2225
G01 X38.4956 Y15.1971
G01 X38.5160 Y15.1695
G01 X38.5337 Y15.1400
G01 X38.5484 Y15.1090
G01 X38.5599 Y15.0766
G01 X38.5683 Y15.0433
G01 X38.5733 Y15.0093
G01 X38.5750 Y14.9750
G00 Z2.0000
G00 X32.2250 Y17.5150
G01 F60.00
G01 Z-1.8000
G01 F120.00
G01 X32.2233 Y17.4807
G01 X32.2183 Y17.4467
G01 X32.2099 Y17.4134
G01 X32.1984 Y17.3811
G01 X32.1837 Y17.3500
G01 X32.1660 Y17.3206
G01 X32.1456 Y17.2930
G01 X32.1225 Y17.2675
G01 X32.0971 Y17.2445
G01 X32.0695 Y17.2240
G01 X32.0400 Y17.2063
G01 X32.0090 Y17.1917
G01 X31.9766 Y17.1801
G01 X31.9433 Y17.1717
G01 X31.9093 Y17.1667
G01 X31.8750 Y17.1650
G01 X31.8407 Y17.1667
G01 X31.8067 Y17.1717
G01 X31.7734 Y17.1801
G01 X31.7411 Y17.1917
G01 X31.7100 Y17.2063
G01 X31.6806 Y17.2240
G01 X31.6530 Y17.2445
G01 X31.6275 Y17.2675
G01 X31.6045 Y17.2930
G01 X31.5840 Y17.3206
G01 X31.5663 Y17.3500
G01 X31.5517 Y17.3811
G01 X31.5401 Y17.4134
G01 X31.5317 Y17.4467
G01 X31.5267 Y17.4807
G01 X31.5250 Y17.5150
G01 X31.5267 Y17.5493
G01 X31.5317 Y17.5833
G01 X31.5401 Y17.6166
G01 X31.5517 Y17.6490
G01 X31.5663 Y17.6800
G01 X31.5840 Y17.7095
G01 X31.6045 Y17.7371
G01 X31.6275 Y17.7625
G01 X31.6530 Y17.7856
G01 X31.6806 Y17.8060
G01 X31.7100 Y17.8237
G01 X31.7411 Y17.8384
G01 X31.7734 Y17.8499
G01 X31.8067 Y17.8583
G01 X31.8407 Y17.8633
G01 X31.8750 Y17.8650
G01 X31.9093 Y17.8633
G01 X31.9433 Y17.8583
G01 X31.9766 Y17.8499
G01 X32.0090 Y17.8384
G01 X32.0400 Y17.8237
G01 X32.0695 Y17.8060
G01 X32.0971 Y17.7856
G01 X32.1225 Y17.7625
G01 X32.1456 Y17.7371
G01 X32.1660 Y17.7095
G01 X32.1837 Y17.6800
G01 X32.1984 Y17.6490
G01 X32.2099 Y17.6166
G01 X32.2183 Y17.5833
G01 X32.2233 Y17.5493
G01 X32.2250 Y17.5150
G00 Z2.0000
G00 X22.3750 Y5.0250
G01 F60.00
G01 Z-1.8000
G01 F120.00
G01 X22.3685 Y4.8927
G01 X22.3491 Y4.7616
G01 X22.3169 Y4.6331
G01 X22.2722 Y4.5084
G01 X22.2156 Y4.3886
G01 X22.1475 Y4.2750
G01 X22.0686 Y4.1686
G01 X21.9796 Y4.0704
G01 X21.8814 Y3.9814
G01 X21.7750 Y3.9025
G01 X21.6614 Y3.8344
G01 X21.5416 Y3.7778
G01 X21.4169 Y3.7331
G01 X21.2884 Y3.7010
G01 X21.1573 Y3.6815
G01 X21.0250 Y3.6750
G01 X20.8927 Y3.6815
G01 X20.7616 Y3.7010
G01 X20.6331 Y3.7331
G01 X20.5084 Y3.7778
G01 X20.3886 Y3.8344
G01 X20.2750 Y3.9025
G01 X20.1686 Y3.9814
G01 X20.0704 Y4.0704
G01 X19.9814 Y4.1686
G01 X19.9025 Y4.2750
G01 X19.8344 Y4.3886
G01 X19.7778 Y4.5084
G01 X19.7331 Y4.6331
G01 X19.7010 Y4.7616
G01 X19.6815 Y4.8927
G01 X19.6750 Y5.0250
G01 X19.6815 Y5.1573
G01 X19.7010 Y5.2884
G01 X19.7331 Y5.4169
G01 X19.7778 Y5.5416
G01 X19.8344 Y5.6614
G01 X19.9025 Y5.7750
G01 X19.9814 Y5.8814
G01 X20.0704 Y5.9796
G01 X20.1686 Y6.0686
G01 X20.2750 Y6.1475
G01 X20.3886 Y6.2156
G01 X20.5084 Y6.2722
G01 X20.6331 Y6.3169
G01 X20.7616 Y6.3491
G01 X20.8927 Y6.3685
G01 X21.0250 Y6.3750
G01 X21.1573 Y6.3685
G01 X21.2884 Y6.3491
G01 X21.4169 Y6.3169
G01 X21.5416 Y6.2722
G01 X21.6614 Y6.2156
G01 X21.7750 Y6.1475
G01 X21.8814 Y6.0686
G01 X21.9796 Y5.9796
G01 X22.0686 Y5.8814
G01 X22.1475 Y5.7750
G01 X22.2156 Y5.6614
G01 X22.2722 Y5.5416
G01 X22.3169 Y5.4169
G01 X22.3491 Y5.2884
G01 X22.3685 Y5.1573
G01 X22.3750 Y5.0250
G00 Z2.0000
G00 X52.5450 Y17.5150
G01 F60.00
G01 Z-1.8000
G01 F120.00
G01 X52.5433 Y17.4807
G01 X52.5383 Y17.4467
G01 X52.5299 Y17.4134
G01 X52.5184 Y17.3811
G01 X52.5037 Y17.3500
G01 X52.4860 Y17.3206
G01 X52.4656 Y17.2930
G01 X52.4425 Y17.2675
G01 X52.4171 Y17.2445
G01 X52.3895 Y17.2240
G01 X52.3600 Y17.2063
G01 X52.3290 Y17.1917
G01 X52.2966 Y17.1801
G01 X52.2633 Y17.1717
G01 X52.2293 Y17.1667
G01 X52.1950 Y17.1650
G01 X52.1607 Y17.1667
G01 X52.1267 Y17.1717
G01 X52.0934 Y17.1801
G01 X52.0611 Y17.1917
G01 X52.0300 Y17.2063
G01 X52.0006 Y17.2240
G01 X51.9730 Y17.2445
G01 X51.9475 Y17.2675
G01 X51.9245 Y17.2930
G01 X51.9040 Y17.3206
G01 X51.8863 Y17.3500
G01 X51.8717 Y17.3811
G01 X51.8601 Y17.4134
G01 X51.8517 Y17.4467
G01 X51.8467 Y17.4807
G01 X51.8450 Y17.5150
G01 X51.8467 Y17.5493
G01 X51.8517 Y17.5833
G01 X51.8601 Y17.6166
G01 X51.8717 Y17.6490
G01 X51.8863 Y17.6800
G01 X51.9040 Y17.7095
G01 X51.9245 Y17.7371
G01 X51.9475 Y17.7625
G01 X51.9730 Y17.7856
G01 X52.0006 Y17.8060
G01 X52.0300 Y17.8237
G01 X52.0611 Y17.8384
G01 X52.0934 Y17.8499
G01 X52.1267 Y17.8583
G01 X52.1607 Y17.8633
G01 X52.1950 Y17.8650
G01 X52.2293 Y17.8633
G01 X52.2633 Y17.8583
G01 X52.2966 Y17.8499
G01 X52.3290 Y17.8384
G01 X52.3600 Y17.8237
G01 X52.3895 Y17.8060
G01 X52.4171 Y17.7856
G01 X52.4425 Y17.7625
G01 X52.4656 Y17.7371
G01 X52.4860 Y17.7095
G01 X52.5037 Y17.6800
G01 X52.5184 Y17.6490
G01 X52.5299 Y17.6166
G01 X52.5383 Y17.5833
G01 X52.5433 Y17.5493
G01 X52.5450 Y17.5150
G00 Z2.0000
G00 X57.6050 Y20.0550
G01 F60.00
G01 Z-1.8000
G01 F120.00
G01 X57.5973 Y19.8982
G01 X57.5743 Y19.7429
G01 X57.5361 Y19.5906
G01 X57.4832 Y19.4427
G01 X57.4161 Y19.3008
G01 X57.3354 Y19.1661
G01 X57.2418 Y19.0400
G01 X57.1364 Y18.9236
G01 X57.0200 Y18.8182
G01 X56.8939 Y18.7247
G01 X56.7592 Y18.6439
G01 X56.6173 Y18.5768
G01 X56.4695 Y18.5239
G01 X56.3172 Y18.4858
G01 X56.1618 Y18.4627
G01 X56.0050 Y18.4550
G01 X55.8482 Y18.4627
G01 X55.6929 Y18.4858
G01 X55.5406 Y18.5239
G01 X55.3927 Y18.5768
G01 X55.2508 Y18.6439
G01 X55.1161 Y18.7247
G01 X54.9900 Y18.8182
G01 X54.8736 Y18.9236
G01 X54.7682 Y19.0400
G01 X54.6747 Y19.1661
G01 X54.5939 Y19.3008
G01 X54.5268 Y19.4427
G01 X54.4739 Y19.5906
G01 X54.4358 Y19.7429
G01 X54.4127 Y19.8982
G01 X54.4050 Y20.0550
G01 X54.4127 Y20.2118
G01 X54.4358 Y20.3672
G01 X54.4739 Y20.5195
G01 X54.5268 Y20.6673
G01 X54.5939 Y20.8092
G01 X54.6747 Y20.9439
G01 X54.7682 Y21.0700
G01 X54.8736 Y21.1864
G01 X54.9900 Y21.2918
G01 X55.1161 Y21.3854
G01 X55.2508 Y21.4661
G01 X55.3927 Y21.5332
G01 X55.5406 Y21.5861
G01 X55.6929 Y21.6243
G01 X55.8482 Y21.6473
G01 X56.0050 Y21.6550
G01 X56.1618 Y21.6473
G01 X56.3172 Y21.6243
G01 X56.4695 Y21.5861
G01 X56.6173 Y21.5332
G01 X56.7592 Y21.4661
G01 X56.8939 Y21.3854
G01 X57.0200 Y21.2918
G01 X57.1364 Y21.1864
G01 X57.2418 Y21.0700
G01 X57.3354 Y20.9439
G01 X57.4161 Y20.8092
G01 X57.4832 Y20.6673
G01 X57.5361 Y20.5195
G01 X57.5743 Y20.3672
G01 X57.5973 Y20.2118
G01 X57.6050 Y20.0550
G00 Z2.0000
G00 X58.8950 Y14.9750
G01 F60.00
G01 Z-1.8000
G01 F120.00
G01 X58.8933 Y14.9407
G01 X58.8883 Y14.9067
G01 X58.8799 Y14.8734
G01 X58.8684 Y14.8411
G01 X58.8537 Y14.8100
G01 X58.8360 Y14.7806
G01 X58.8156 Y14.7530
G01 X58.7925 Y14.7275
G01 X58.7671 Y14.7045
G01 X58.7395 Y14.6840
G01 X58.7100 Y14.6663
G01 X58.6790 Y14.6517
G01 X58.6466 Y14.6401
G01 X58.6133 Y14.6317
G01 X58.5793 Y14.6267
G01 X58.5450 Y14.6250
G01 X58.5107 Y14.6267
G01 X58.4767 Y14.6317
G01 X58.4434 Y14.6401
G01 X58.4111 Y14.6517
G01 X58.3800 Y14.6663
G01 X58.3506 Y14.6840
G01 X58.3230 Y14.7045
G01 X58.2975 Y14.7275
G01 X58.2745 Y14.7530
G01 X58.2540 Y14.7806
G01 X58.2363 Y14.8100
G01 X58.2217 Y14.8411
G01 X58.2101 Y14.8734
G01 X58.2017 Y14.9067
G01 X58.1967 Y14.9407
G01 X58.1950 Y14.9750
G01 X58.1967 Y15.0093
G01 X58.2017 Y15.0433
G01 X58.2101 Y15.0766
G01 X58.2217 Y15.1090
G01 X58.2363 Y15.1400
G01 X58.2540 Y15.1695
G01 X58.2745 Y15.1971
G01 X58.2975 Y15.2225
G01 X58.3230 Y15.2456
G01 X58.3506 Y15.2660
G01 X58.3800 Y15.2837
G01 X58.4111 Y15.2984
G01 X58.4434 Y15.3099
G01 X58.4767 Y15.3183
G01 X58.5107 Y15.3233
G01 X58.5450 Y15.3250
G01 X58.5793 Y15.3233
G01 X58.6133 Y15.3183
G01 X58.6466 Y15.3099
G01 X58.6790 Y15.2984
G01 X58.7100 Y15.2837
G01 X58.7395 Y15.2660
G01 X58.7671 Y15.2456
G01 X58.7925 Y15.2225
G01 X58.8156 Y15.1971
G01 X58.8360 Y15.1695
G01 X58.8537 Y15.1400
G01 X58.8684 Y15.1090
G01 X58.8799 Y15.0766
G01 X58.8883 Y15.0433
G01 X58.8933 Y15.0093
G01 X58.8950 Y14.9750
G00 Z2.0000
G00 X72.8650 Y17.5150
G01 F60.00
G01 Z-1.8000
G01 F120.00
G01 X72.8633 Y17.4807
G01 X72.8583 Y17.4467
G01 X72.8499 Y17.4134
G01 X72.8384 Y17.3811
G01 X72.8237 Y17.3500
G01 X72.8060 Y17.3206
G01 X72.7856 Y17.2930
G01 X72.7625 Y17.2675
G01 X72.7371 Y17.2445
G01 X72.7095 Y17.2240
G01 X72.6800 Y17.2063
G01 X72.6490 Y17.1917
G01 X72.6166 Y17.1801
G01 X72.5833 Y17.1717
G01 X72.5493 Y17.1667
G01 X72.5150 Y17.1650
G01 X72.4807 Y17.1667
G01 X72.4467 Y17.1717
G01 X72.4134 Y17.1801
G01 X72.3811 Y17.1917
G01 X72.3500 Y17.2063
G01 X72.3206 Y17.2240
G01 X72.2930 Y17.2445
G01 X72.2675 Y17.2675
G01 X72.2445 Y17.2930
G01 X72.2240 Y17.3206
G01 X72.2063 Y17.3500
G01 X72.1917 Y17.3811
G01 X72.1801 Y17.4134
G01 X72.1717 Y17.4467
G01 X72.1667 Y17.4807
G01 X72.1650 Y17.5150
G01 X72.1667 Y17.5493
G01 X72.1717 Y17.5833
G01 X72.1801 Y17.6166
G01 X72.1917 Y17.6490
G01 X72.2063 Y17.6800
G01 X72.2240 Y17.7095
G01 X72.2445 Y17.7371
G01 X72.2675 Y17.7625
G01 X72.2930 Y17.7856
G01 X72.3206 Y17.8060
G01 X72.3500 Y17.8237
G01 X72.3811 Y17.8384
G01 X72.4134 Y17.8499
G01 X72.4467 Y17.8583
G01 X72.4807 Y17.8633
G01 X72.5150 Y17.8650
G01 X72.5493 Y17.8633
G01 X72.5833 Y17.8583
G01 X72.6166 Y17.8499
G01 X72.6490 Y17.8384
G01 X72.6800 Y17.8237
G01 X72.7095 Y17.8060
G01 X72.7371 Y17.7856
G01 X72.7625 Y17.7625
G01 X72.7856 Y17.7371
G01 X72.8060 Y17.7095
G01 X72.8237 Y17.6800
G01 X72.8384 Y17.6490
G01 X72.8499 Y17.6166
G01 X72.8583 Y17.5833
G01 X72.8633 Y17.5493
G01 X72.8650 Y17.5150
G00 Z2.0000
G00 X77.9250 Y20.0550
G01 F60.00
G01 Z-1.8000
G01 F120.00
G01 X77.9173 Y19.8982
G01 X77.8943 Y19.7429
G01 X77.8561 Y19.5906
G01 X77.8032 Y19.4427
G01 X77.7361 Y19.3008
G01 X77.6554 Y19.1661
G01 X77.5618 Y19.0400
G01 X77.4564 Y18.9236
G01 X77.3400 Y18.8182
G01 X77.2139 Y18.7247
G01 X77.0792 Y18.6439
G01 X76.9373 Y18.5768
G01 X76.7895 Y18.5239
G01 X76.6372 Y18.4858
G01 X76.4818 Y18.4627
G01 X76.3250 Y18.4550
G01 X76.1682 Y18.4627
G01 X76.0129 Y18.4858
G01 X75.8606 Y18.5239
G01 X75.7127 Y18.5768
G01 X75.5708 Y18.6439
G01 X75.4361 Y18.7247
G01 X75.3100 Y18.8182
G01 X75.1936 Y18.9236
G01 X75.0882 Y19.0400
G01 X74.9947 Y19.1661
G01 X74.9139 Y19.3008
G01 X74.8468 Y19.4427
G01 X74.7939 Y19.5906
G01 X74.7558 Y19.7429
G01 X74.7327 Y19.8982
G01 X74.7250 Y20.0550
G01 X74.7327 Y20.2118
G01 X74.7558 Y20.3672
G01 X74.7939 Y20.5195
G01 X74.8468 Y20.6673
G01 X74.9139 Y20.8092
G01 X74.9947 Y20.9439
G01 X75.0882 Y21.0700
G01 X75.1936 Y21.1864
G01 X75.3100 Y21.2918
G01 X75.4361 Y21.3854
G01 X75.5708 Y21.4661
G01 X75.7127 Y21.5332
G01 X75.8606 Y21.5861
G01 X76.0129 Y21.6243
G01 X76.1682 Y21.6473
G01 X76.3250 Y21.6550
G01 X76.4818 Y21.6473
G01 X76.6372 Y21.6243
G01 X76.7895 Y21.5861
G01 X76.9373 Y21.5332
G01 X77.0792 Y21.4661
G01 X77.2139 Y21.3854
G01 X77.3400 Y21.2918
G01 X77.4564 Y21.1864
G01 X77.5618 Y21.0700
G01 X77.6554 Y20.9439
G01 X77.7361 Y20.8092
G01 X77.8032 Y20.6673
G01 X77.8561 Y20.5195
G01 X77.8943 Y20.3672
G01 X77.9173 Y20.2118
G01 X77.9250 Y20.0550
G00 Z2.0000
G00 X79.2150 Y14.9750
G01 F60.00
G01 Z-1.8000
G01 F120.00
G01 X79.2133 Y14.9407
G01 X79.2083 Y14.9067
G01 X79.1999 Y14.8734
G01 X79.1884 Y14.8411
G01 X79.1737 Y14.8100
G01 X79.1560 Y14.7806
G01 X79.1356 Y14.7530
G01 X79.1125 Y14.7275
G01 X79.0871 Y14.7045
G01 X79.0595 Y14.6840
G01 X79.0300 Y14.6663
G01 X78.9990 Y14.6517
G01 X78.9666 Y14.6401
G01 X78.9333 Y14.6317
G01 X78.8993 Y14.6267
G01 X78.8650 Y14.6250
G01 X78.8307 Y14.6267
G01 X78.7967 Y14.6317
G01 X78.7634 Y14.6401
G01 X78.7311 Y14.6517
G01 X78.7000 Y14.6663
G01 X78.6706 Y14.6840
G01 X78.6430 Y14.7045
G01 X78.6175 Y14.7275
G01 X78.5945 Y14.7530
G01 X78.5740 Y14.7806
G01 X78.5563 Y14.8100
G01 X78.5417 Y14.8411
G01 X78.5301 Y14.8734
G01 X78.5217 Y14.9067
G01 X78.5167 Y14.9407
G01 X78.5150 Y14.9750
G01 X78.5167 Y15.0093
G01 X78.5217 Y15.0433
G01 X78.5301 Y15.0766
G01 X78.5417 Y15.1090
G01 X78.5563 Y15.1400
G01 X78.5740 Y15.1695
G01 X78.5945 Y15.1971
G01 X78.6175 Y15.2225
G01 X78.6430 Y15.2456
G01 X78.6706 Y15.2660
G01 X78.7000 Y15.2837
G01 X78.7311 Y15.2984
G01 X78.7634 Y15.3099
G01 X78.7967 Y15.3183
G01 X78.8307 Y15.3233
G01 X78.8650 Y15.3250
G01 X78.8993 Y15.3233
G01 X78.9333 Y15.3183
G01 X78.9666 Y15.3099
G01 X78.9990 Y15.2984
G01 X79.0300 Y15.2837
G01 X79.0595 Y15.2660
G01 X79.0871 Y15.2456
G01 X79.1125 Y15.2225
G01 X79.1356 Y15.1971
G01 X79.1560 Y15.1695
G01 X79.1737 Y15.1400
G01 X79.1884 Y15.1090
G01 X79.1999 Y15.0766
G01 X79.2083 Y15.0433
G01 X79.2133 Y15.0093
G01 X79.2150 Y14.9750
G00 Z2.0000
G00 X84.3750 Y5.0250
G01 F60.00
G01 Z-1.8000
G01 F120.00
G01 X84.3685 Y4.8927
G01 X84.3491 Y4.7616
G01 X84.3169 Y4.6331
G01 X84.2722 Y4.5084
G01 X84.2156 Y4.3886
G01 X84.1475 Y4.2750
G01 X84.0686 Y4.1686
G01 X83.9796 Y4.0704
G01 X83.8814 Y3.9814
G01 X83.7750 Y3.9025
G01 X83.6614 Y3.8344
G01 X83.5416 Y3.7778
G01 X83.4169 Y3.7331
G01 X83.2884 Y3.7010
G01 X83.1573 Y3.6815
G01 X83.0250 Y3.6750
G01 X82.8927 Y3.6815
G01 X82.7616 Y3.7010
G01 X82.6331 Y3.7331
G01 X82.5084 Y3.7778
G01 X82.3886 Y3.8344
G01 X82.2750 Y3.9025
G01 X82.1686 Y3.9814
G01 X82.0704 Y4.0704
G01 X81.9814 Y4.1686
G01 X81.9025 Y4.2750
G01 X81.8344 Y4.3886
G01 X81.7778 Y4.5084
G01 X81.7331 Y4.6331
G01 X81.7010 Y4.7616
G01 X81.6815 Y4.8927
G01 X81.6750 Y5.0250
G01 X81.6815 Y5.1573
G01 X81.7010 Y5.2884
G01 X81.7331 Y5.4169
G01 X81.7778 Y5.5416
G01 X81.8344 Y5.6614
G01 X81.9025 Y5.7750
G01 X81.9814 Y5.8814
G01 X82.0704 Y5.9796
G01 X82.1686 Y6.0686
G01 X82.2750 Y6.1475
G01 X82.3886 Y6.2156
G01 X82.5084 Y6.2722
G01 X82.6331 Y6.3169
G01 X82.7616 Y6.3491
G01 X82.8927 Y6.3685
G01 X83.0250 Y6.3750
G01 X83.1573 Y6.3685
G01 X83.2884 Y6.3491
G01 X83.4169 Y6.3169
G01 X83.5416 Y6.2722
G01 X83.6614 Y6.2156
G01 X83.7750 Y6.1475
G01 X83.8814 Y6.0686
G01 X83.9796 Y5.9796
G01 X84.0686 Y5.8814
G01 X84.1475 Y5.7750
G01 X84.2156 Y5.6614
G01 X84.2722 Y5.5416
G01 X84.3169 Y5.4169
G01 X84.3491 Y5.2884
G01 X84.3685 Y5.1573
G01 X84.3750 Y5.0250
G00 Z2.0000
G00 X58.8950 Y75.9350
G01 F60.00
G01 Z-1.8000
G01 F120.00
G01 X58.8933 Y75.9007
G01 X58.8883 Y75.8667
G01 X58.8799 Y75.8334
G01 X58.8684 Y75.8011
G01 X58.8537 Y75.7700
G01 X58.8360 Y75.7406
G01 X58.8156 Y75.7130
G01 X58.7925 Y75.6875
G01 X58.7671 Y75.6645
G01 X58.7395 Y75.6440
G01 X58.7100 Y75.6263
G01 X58.6790 Y75.6117
G01 X58.6466 Y75.6001
G01 X58.6133 Y75.5917
G01 X58.5793 Y75.5867
G01 X58.5450 Y75.5850
G01 X58.5107 Y75.5867
G01 X58.4767 Y75.5917
G01 X58.4434 Y75.6001
G01 X58.4111 Y75.6117
G01 X58.3800 Y75.6263
G01 X58.3506 Y75.6440
G01 X58.3230 Y75.6645
G01 X58.2975 Y75.6875
G01 X58.2745 Y75.7130
G01 X58.2540 Y75.7406
G01 X58.2363 Y75.7700
G01 X58.2217 Y75.8011
G01 X58.2101 Y75.8334
G01 X58.2017 Y75.8667
G01 X58.1967 Y75.9007
G01 X58.1950 Y75.9350
G01 X58.1967 Y75.9693
G01 X58.2017 Y76.0033
G01 X58.2101 Y76.0366
G01 X58.2217 Y76.0690
G01 X58.2363 Y76.1000
G01 X58.2540 Y76.1295
G01 X58.2745 Y76.1571
G01 X58.2975 Y76.1825
G01 X58.3230 Y76.2056
G01 X58.3506 Y76.2260
G01 X58.3800 Y76.2437
G01 X58.4111 Y76.2584
G01 X58.4434 Y76.2699
G01 X58.4767 Y76.2783
G01 X58.5107 Y76.2833
G01 X58.5450 Y76.2850
G01 X58.5793 Y76.2833
G01 X58.6133 Y76.2783
G01 X58.6466 Y76.2699
G01 X58.6790 Y76.2584
G01 X58.7100 Y76.2437
G01 X58.7395 Y76.2260
G01 X58.7671 Y76.2056
G01 X58.7925 Y76.1825
G01 X58.8156 Y76.1571
G01 X58.8360 Y76.1295
G01 X58.8537 Y76.1000
G01 X58.8684 Y76.0690
G01 X58.8799 Y76.0366
G01 X58.8883 Y76.0033
G01 X58.8933 Y75.9693
G01 X58.8950 Y75.9350
G00 Z2.0000
G00 X57.6050 Y81.0150
G01 F60.00
G01 Z-1.8000
G01 F120.00
G01 X57.5973 Y80.8582
G01 X57.5743 Y80.7029
G01 X57.5361 Y80.5506
G01 X57.4832 Y80.4027
G01 X57.4161 Y80.2608
G01 X57.3354 Y80.1261
G01 X57.2418 Y80.0000
G01 X57.1364 Y79.8836
G01 X57.0200 Y79.7782
G01 X56.8939 Y79.6847
G01 X56.7592 Y79.6039
G01 X56.6173 Y79.5368
G01 X56.4695 Y79.4839
G01 X56.3172 Y79.4458
G01 X56.1618 Y79.4227
G01 X56.0050 Y79.4150
G01 X55.8482 Y79.4227
G01 X55.6929 Y79.4458
G01 X55.5406 Y79.4839
G01 X55.3927 Y79.5368
G01 X55.2508 Y79.6039
G01 X55.1161 Y79.6847
G01 X54.9900 Y79.7782
G01 X54.8736 Y79.8836
G01 X54.7682 Y80.0000
G01 X54.6747 Y80.1261
G01 X54.5939 Y80.2608
G01 X54.5268 Y80.4027
G01 X54.4739 Y80.5506
G01 X54.4358 Y80.7029
G01 X54.4127 Y80.8582
G01 X54.4050 Y81.0150
G01 X54.4127 Y81.1718
G01 X54.4358 Y81.3272
G01 X54.4739 Y81.4795
G01 X54.5268 Y81.6273
G01 X54.5939 Y81.7692
G01 X54.6747 Y81.9039
G01 X54.7682 Y82.0300
G01 X54.8736 Y82.1464
G01 X54.9900 Y82.2518
G01 X55.1161 Y82.3454
G01 X55.2508 Y82.4261
G01 X55.3927 Y82.4932
G01 X55.5406 Y82.5461
G01 X55.6929 Y82.5843
G01 X55.8482 Y82.6073
G01 X56.0050 Y82.6150
G01 X56.1618 Y82.6073
G01 X56.3172 Y82.5843
G01 X56.4695 Y82.5461
G01 X56.6173 Y82.4932
G01 X56.7592 Y82.4261
G01 X56.8939 Y82.3454
G01 X57.0200 Y82.2518
G01 X57.1364 Y82.1464
G01 X57.2418 Y82.0300
G01 X57.3354 Y81.9039
G01 X57.4161 Y81.7692
G01 X57.4832 Y81.6273
G01 X57.5361 Y81.4795
G01 X57.5743 Y81.3272
G01 X57.5973 Y81.1718
G01 X57.6050 Y81.0150
G00 Z2.0000
G00 X52.5450 Y78.4750
G01 F60.00
G01 Z-1.8000
G01 F120.00
G01 X52.5433 Y78.4407
G01 X52.5383 Y78.4067
G01 X52.5299 Y78.3734
G01 X52.5184 Y78.3411
G01 X52.5037 Y78.3100
G01 X52.4860 Y78.2806
G01 X52.4656 Y78.2530
G01 X52.4425 Y78.2275
G01 X52.4171 Y78.2045
G01 X52.3895 Y78.1840
G01 X52.3600 Y78.1663
G01 X52.3290 Y78.1517
G01 X52.2966 Y78.1401
G01 X52.2633 Y78.1317
G01 X52.2293 Y78.1267
G01 X52.1950 Y78.1250
G01 X52.1607 Y78.1267
G01 X52.1267 Y78.1317
G01 X52.0934 Y78.1401
G01 X52.0611 Y78.1517
G01 X52.0300 Y78.1663
G01 X52.0006 Y78.1840
G01 X51.9730 Y78.2045
G01 X51.9475 Y78.2275
G01 X51.9245 Y78.2530
G01 X51.9040 Y78.2806
G01 X51.8863 Y78.3100
G01 X51.8717 Y78.3411
G01 X51.8601 Y78.3734
G01 X51.8517 Y78.4067
G01 X51.8467 Y78.4407
G01 X51.8450 Y78.4750
G01 X51.8467 Y78.5093
G01 X51.8517 Y78.5433
G01 X51.8601 Y78.5766
G01 X51.8717 Y78.6090
G01 X51.8863 Y78.6400
G01 X51.9040 Y78.6695
G01 X51.9245 Y78.6971
G01 X51.9475 Y78.7225
G01 X51.9730 Y78.7456
G01 X52.0006 Y78.7660
G01 X52.0300 Y78.7837
G01 X52.0611 Y78.7984
G01 X52.0934 Y78.8099
G01 X52.1267 Y78.8183
G01 X52.1607 Y78.8233
G01 X52.1950 Y78.8250
G01 X52.2293 Y78.8233
G01 X52.2633 Y78.8183
G01 X52.2966 Y78.8099
G01 X52.3290 Y78.7984
G01 X52.3600 Y78.7837
G01 X52.3895 Y78.7660
G01 X52.4171 Y78.7456
G01 X52.4425 Y78.7225
G01 X52.4656 Y78.6971
G01 X52.4860 Y78.6695
G01 X52.5037 Y78.6400
G01 X52.5184 Y78.6090
G01 X52.5299 Y78.5766
G01 X52.5383 Y78.5433
G01 X52.5433 Y78.5093
G01 X52.5450 Y78.4750
G00 Z2.0000
G00 X84.3750 Y81.0150
G01 F60.00
G01 Z-1.8000
G01 F120.00
G01 X84.3685 Y80.8827
G01 X84.3491 Y80.7516
G01 X84.3169 Y80.6231
G01 X84.2722 Y80.4984
G01 X84.2156 Y80.3786
G01 X84.1475 Y80.2650
G01 X84.0686 Y80.1586
G01 X83.9796 Y80.0604
G01 X83.8814 Y79.9714
G01 X83.7750 Y79.8925
G01 X83.6614 Y79.8244
G01 X83.5416 Y79.7678
G01 X83.4169 Y79.7231
G01 X83.2884 Y79.6910
G01 X83.1573 Y79.6715
G01 X83.0250 Y79.6650
G01 X82.8927 Y79.6715
G01 X82.7616 Y79.6910
G01 X82.6331 Y79.7231
G01 X82.5084 Y79.7678
G01 X82.3886 Y79.8244
G01 X82.2750 Y79.8925
G01 X82.1686 Y79.9714
G01 X82.0704 Y80.0604
G01 X81.9814 Y80.1586
G01 X81.9025 Y80.2650
G01 X81.8344 Y80.3786
G01 X81.7778 Y80.4984
G01 X81.7331 Y80.6231
G01 X81.7010 Y80.7516
G01 X81.6815 Y80.8827
G01 X81.6750 Y81.0150
G01 X81.6815 Y81.1473
G01 X81.7010 Y81.2784
G01 X81.7331 Y81.4069
G01 X81.7778 Y81.5316
G01 X81.8344 Y81.6514
G01 X81.9025 Y81.7650
G01 X81.9814 Y81.8714
G01 X82.0704 Y81.9696
G01 X82.1686 Y82.0586
G01 X82.2750 Y82.1375
G01 X82.3886 Y82.2056
G01 X82.5084 Y82.2622
G01 X82.6331 Y82.3069
G01 X82.7616 Y82.3391
G01 X82.8927 Y82.3585
G01 X83.0250 Y82.3650
G01 X83.1573 Y82.3585
G01 X83.2884 Y82.3391
G01 X83.4169 Y82.3069
G01 X83.5416 Y82.2622
G01 X83.6614 Y82.2056
G01 X83.7750 Y82.1375
G01 X83.8814 Y82.0586
G01 X83.9796 Y81.9696
G01 X84.0686 Y81.8714
G01 X84.1475 Y81.7650
G01 X84.2156 Y81.6514
G01 X84.2722 Y81.5316
G01 X84.3169 Y81.4069
G01 X84.3491 Y81.2784
G01 X84.3685 Y81.1473
G01 X84.3750 Y81.0150
G00 Z2.0000
M05
G00 Z2.0000
G00 Z15.00


